(G-CODE GENERATED BY FLATCAM v8.99 - www.flatcam.org - Version Date: 2019/12/15)

(Name: SChematic Drawing-Edge_Cuts.gbr_iso_cnc)
(Type: G-code from Geometry)
(Units: MM)

(Created on Wednesday, 26 November 2025 at 22:42)

(TOOL DIAMETER: 2.0 mm)
(Feedrate: 120.0 mm/min)
(Feedrate_Z: 60.0 mm/min)
(Feedrate rapids 1500.0 mm/min)

(Z_Cut: -2.0 mm)
(Z_Move: 2.0 mm)
(Z Toolchange: 15.0 mm)
(X,Y Toolchange: 0.0000, 0.0000 mm)
(Z Start: None mm)
(Z End: 5.0 mm)
(Steps per circle: 64)
(Preprocessor Geometry: default)

(X range:   -1.5250 ...   89.5250  mm)
(Y range:   -1.5250 ...   51.5250  mm)

(Spindle Speed: None RPM)
G21
G90
G94




G01 F120.00
G00 Z2.0000

M03
G00 X0.5250 Y49.4750
G01 F60.00
G01 Z-2.0000
G01 F120.00
G01 X0.5250 Y0.5250
G01 X87.4750 Y0.5250
G01 X87.4750 Y49.4750
G01 X0.5250 Y49.4750
G00 Z2.0000
G00 X-1.5250 Y50.5000
G01 F60.00
G01 Z-2.0000
G01 F120.00
G01 X-1.5250 Y-0.5000
G01 X-1.5247 Y-0.5245
G01 X-1.5237 Y-0.5515
G01 X-1.5201 Y-0.6005
G01 X-1.5137 Y-0.6516
G01 X-1.5053 Y-0.7000
G01 X-1.4946 Y-0.7479
G01 X-1.4809 Y-0.7976
G01 X-1.4647 Y-0.8465
G01 X-1.4470 Y-0.8923
G01 X-1.4271 Y-0.9371
G01 X-1.4040 Y-0.9832
G01 X-1.3785 Y-1.0280
G01 X-1.3523 Y-1.0695
G01 X-1.3240 Y-1.1096
G01 X-1.2924 Y-1.1503
G01 X-1.2586 Y-1.1892
G01 X-1.2248 Y-1.2248
G01 X-1.1892 Y-1.2586
G01 X-1.1503 Y-1.2924
G01 X-1.1096 Y-1.3240
G01 X-1.0695 Y-1.3523
G01 X-1.0280 Y-1.3785
G01 X-0.9832 Y-1.4040
G01 X-0.9371 Y-1.4271
G01 X-0.8923 Y-1.4470
G01 X-0.8465 Y-1.4647
G01 X-0.7976 Y-1.4809
G01 X-0.7479 Y-1.4946
G01 X-0.7000 Y-1.5053
G01 X-0.6516 Y-1.5137
G01 X-0.6005 Y-1.5201
G01 X-0.5515 Y-1.5237
G01 X-0.5245 Y-1.5247
G01 X-0.5000 Y-1.5250
G01 X88.5000 Y-1.5250
G01 X88.5245 Y-1.5247
G01 X88.5515 Y-1.5237
G01 X88.6005 Y-1.5201
G01 X88.6492 Y-1.5141
G01 X88.7000 Y-1.5053
G01 X88.7502 Y-1.4940
G01 X88.7975 Y-1.4809
G01 X88.8442 Y-1.4655
G01 X88.8923 Y-1.4470
G01 X88.9393 Y-1.4260
G01 X88.9832 Y-1.4040
G01 X89.0259 Y-1.3798
G01 X89.0695 Y-1.3523
G01 X89.1116 Y-1.3225
G01 X89.1503 Y-1.2924
G01 X89.1874 Y-1.2603
G01 X89.2248 Y-1.2248
G01 X89.2603 Y-1.1874
G01 X89.2923 Y-1.1503
G01 X89.3225 Y-1.1116
G01 X89.3523 Y-1.0695
G01 X89.3785 Y-1.0280
G01 X89.4040 Y-0.9832
G01 X89.4271 Y-0.9371
G01 X89.4470 Y-0.8922
G01 X89.4655 Y-0.8442
G01 X89.4809 Y-0.7975
G01 X89.4940 Y-0.7502
G01 X89.5053 Y-0.7000
G01 X89.5141 Y-0.6492
G01 X89.5201 Y-0.6005
G01 X89.5237 Y-0.5515
G01 X89.5247 Y-0.5245
G01 X89.5250 Y-0.5000
G01 X89.5250 Y50.5000
G01 X89.5247 Y50.5245
G01 X89.5237 Y50.5515
G01 X89.5201 Y50.6005
G01 X89.5141 Y50.6492
G01 X89.5053 Y50.7000
G01 X89.4940 Y50.7502
G01 X89.4809 Y50.7975
G01 X89.4655 Y50.8442
G01 X89.4470 Y50.8922
G01 X89.4260 Y50.9393
G01 X89.4040 Y50.9832
G01 X89.3798 Y51.0259
G01 X89.3523 Y51.0695
G01 X89.3225 Y51.1116
G01 X89.2923 Y51.1503
G01 X89.2603 Y51.1874
G01 X89.2248 Y51.2248
G01 X89.1874 Y51.2603
G01 X89.1503 Y51.2924
G01 X89.1116 Y51.3225
G01 X89.0695 Y51.3523
G01 X89.0259 Y51.3798
G01 X88.9832 Y51.4040
G01 X88.9393 Y51.4260
G01 X88.8923 Y51.4470
G01 X88.8442 Y51.4655
G01 X88.7975 Y51.4809
G01 X88.7502 Y51.4940
G01 X88.7000 Y51.5053
G01 X88.6492 Y51.5141
G01 X88.6005 Y51.5201
G01 X88.5515 Y51.5237
G01 X88.5245 Y51.5247
G01 X88.5000 Y51.5250
G01 X-0.5000 Y51.5250
G01 X-0.5245 Y51.5247
G01 X-0.5515 Y51.5237
G01 X-0.6005 Y51.5201
G01 X-0.6492 Y51.5141
G01 X-0.7000 Y51.5053
G01 X-0.7479 Y51.4946
G01 X-0.7975 Y51.4809
G01 X-0.8442 Y51.4655
G01 X-0.8923 Y51.4470
G01 X-0.9371 Y51.4271
G01 X-0.9832 Y51.4040
G01 X-1.0280 Y51.3785
G01 X-1.0695 Y51.3523
G01 X-1.1116 Y51.3225
G01 X-1.1503 Y51.2924
G01 X-1.1874 Y51.2603
G01 X-1.2248 Y51.2248
G01 X-1.2603 Y51.1874
G01 X-1.2923 Y51.1503
G01 X-1.3225 Y51.1116
G01 X-1.3523 Y51.0695
G01 X-1.3785 Y51.0280
G01 X-1.4040 Y50.9832
G01 X-1.4271 Y50.9371
G01 X-1.4470 Y50.8923
G01 X-1.4655 Y50.8442
G01 X-1.4809 Y50.7975
G01 X-1.4946 Y50.7479
G01 X-1.5053 Y50.7000
G01 X-1.5137 Y50.6516
G01 X-1.5201 Y50.6005
G01 X-1.5237 Y50.5515
G01 X-1.5247 Y50.5245
G01 X-1.5250 Y50.5000
G00 Z2.0000
M05
G00 Z2.0000
G00 Z5.00
G00 X0.0 Y0.0

