(G-CODE GENERATED BY FLATCAM v8.99 - www.flatcam.org - Version Date: 2019/12/15)

(Name: SChematic Drawing-F_Cu.gbr_iso_cnc)
(Type: G-code from Geometry)
(Units: MM)

(Created on Wednesday, 26 November 2025 at 22:42)

(TOOL DIAMETER: 0.1536 mm)
(Feedrate: 120.0 mm/min)
(Feedrate_Z: 60.0 mm/min)
(Feedrate rapids 1500.0 mm/min)

(Z_Cut: -0.1 mm)
(Z_Move: 2.0 mm)
(Z Toolchange: 15.0 mm)
(X,Y Toolchange: 0.0000, 0.0000 mm)
(Z Start: None mm)
(Z End: 5.0 mm)
(Steps per circle: 64)
(Preprocessor Geometry: default)

(X range:   -0.3835 ...   88.3835  mm)
(Y range:   -0.3835 ...   50.3835  mm)

(Spindle Speed: None RPM)
G21
G90
G94




G01 F120.00
G00 Z2.0000

M03
G00 X-0.0745 Y0.1082
G01 F60.00
G01 Z-0.1000
G01 F120.00
G01 X-0.0633 Y0.0567
G01 X-0.0609 Y0.0480
G01 X-0.0570 Y0.0387
G01 X-0.0539 Y0.0331
G01 X-0.0503 Y0.0277
G01 X-0.0463 Y0.0227
G01 X-0.0006 Y-0.0301
G01 X0.0045 Y-0.0354
G01 X0.0100 Y-0.0402
G01 X0.0160 Y-0.0445
G01 X0.0223 Y-0.0481
G01 X0.0289 Y-0.0511
G01 X0.0358 Y-0.0535
G01 X0.1029 Y-0.0732
G01 X0.1100 Y-0.0749
G01 X0.1172 Y-0.0760
G01 X0.1245 Y-0.0763
G01 X87.8755 Y-0.0763
G01 X87.8837 Y-0.0759
G01 X87.8918 Y-0.0745
G01 X87.9433 Y-0.0633
G01 X87.9520 Y-0.0609
G01 X87.9604 Y-0.0575
G01 X87.9669 Y-0.0539
G01 X87.9723 Y-0.0503
G01 X87.9773 Y-0.0463
G01 X88.0301 Y-0.0006
G01 X88.0354 Y0.0045
G01 X88.0402 Y0.0100
G01 X88.0445 Y0.0160
G01 X88.0481 Y0.0223
G01 X88.0511 Y0.0289
G01 X88.0535 Y0.0358
G01 X88.0732 Y0.1029
G01 X88.0749 Y0.1100
G01 X88.0760 Y0.1172
G01 X88.0763 Y0.1245
G01 X88.0763 Y49.8755
G01 X88.0759 Y49.8837
G01 X88.0745 Y49.8918
G01 X88.0633 Y49.9433
G01 X88.0609 Y49.9520
G01 X88.0575 Y49.9604
G01 X88.0539 Y49.9669
G01 X88.0503 Y49.9723
G01 X88.0463 Y49.9773
G01 X88.0006 Y50.0301
G01 X87.9955 Y50.0354
G01 X87.9900 Y50.0402
G01 X87.9840 Y50.0445
G01 X87.9777 Y50.0481
G01 X87.9711 Y50.0511
G01 X87.9642 Y50.0535
G01 X87.8971 Y50.0732
G01 X87.8900 Y50.0749
G01 X87.8828 Y50.0760
G01 X87.8755 Y50.0763
G01 X0.1245 Y50.0763
G01 X0.1163 Y50.0759
G01 X0.1082 Y50.0745
G01 X0.0567 Y50.0633
G01 X0.0480 Y50.0609
G01 X0.0396 Y50.0575
G01 X0.0331 Y50.0539
G01 X0.0277 Y50.0503
G01 X0.0227 Y50.0463
G01 X-0.0301 Y50.0006
G01 X-0.0354 Y49.9955
G01 X-0.0402 Y49.9900
G01 X-0.0445 Y49.9840
G01 X-0.0481 Y49.9777
G01 X-0.0511 Y49.9711
G01 X-0.0535 Y49.9642
G01 X-0.0732 Y49.8971
G01 X-0.0749 Y49.8900
G01 X-0.0760 Y49.8828
G01 X-0.0763 Y49.8755
G01 X-0.0763 Y0.1245
G01 X-0.0759 Y0.1163
G01 X-0.0745 Y0.1082
G00 Z2.0000
G00 X-0.1496 Y0.0918
G01 F60.00
G01 Z-0.1000
G01 F120.00
G01 X-0.1384 Y0.0403
G01 X-0.1335 Y0.0229
G01 X-0.1266 Y0.0062
G01 X-0.1195 Y-0.0068
G01 X-0.1124 Y-0.0175
G01 X-0.1044 Y-0.0276
G01 X-0.0586 Y-0.0804
G01 X-0.0485 Y-0.0910
G01 X-0.0374 Y-0.1006
G01 X-0.0254 Y-0.1091
G01 X-0.0128 Y-0.1164
G01 X0.0004 Y-0.1224
G01 X0.0142 Y-0.1272
G01 X0.0812 Y-0.1469
G01 X0.0954 Y-0.1503
G01 X0.1099 Y-0.1524
G01 X0.1245 Y-0.1531
G01 X87.8755 Y-0.1531
G01 X87.8919 Y-0.1522
G01 X87.9082 Y-0.1496
G01 X87.9597 Y-0.1384
G01 X87.9771 Y-0.1335
G01 X87.9938 Y-0.1266
G01 X88.0068 Y-0.1195
G01 X88.0175 Y-0.1124
G01 X88.0276 Y-0.1044
G01 X88.0804 Y-0.0586
G01 X88.0910 Y-0.0485
G01 X88.1006 Y-0.0374
G01 X88.1091 Y-0.0254
G01 X88.1164 Y-0.0128
G01 X88.1224 Y0.0004
G01 X88.1272 Y0.0142
G01 X88.1469 Y0.0812
G01 X88.1503 Y0.0954
G01 X88.1524 Y0.1099
G01 X88.1531 Y0.1245
G01 X88.1531 Y49.8755
G01 X88.1522 Y49.8919
G01 X88.1496 Y49.9082
G01 X88.1384 Y49.9597
G01 X88.1335 Y49.9771
G01 X88.1266 Y49.9938
G01 X88.1195 Y50.0068
G01 X88.1124 Y50.0175
G01 X88.1044 Y50.0276
G01 X88.0586 Y50.0804
G01 X88.0485 Y50.0910
G01 X88.0374 Y50.1006
G01 X88.0254 Y50.1091
G01 X88.0128 Y50.1164
G01 X87.9996 Y50.1224
G01 X87.9858 Y50.1272
G01 X87.9188 Y50.1469
G01 X87.9046 Y50.1503
G01 X87.8901 Y50.1524
G01 X87.8755 Y50.1531
G01 X0.1245 Y50.1531
G01 X0.1081 Y50.1522
G01 X0.0918 Y50.1496
G01 X0.0403 Y50.1384
G01 X0.0229 Y50.1335
G01 X0.0062 Y50.1266
G01 X-0.0068 Y50.1195
G01 X-0.0175 Y50.1124
G01 X-0.0276 Y50.1044
G01 X-0.0804 Y50.0586
G01 X-0.0910 Y50.0485
G01 X-0.1006 Y50.0374
G01 X-0.1091 Y50.0254
G01 X-0.1164 Y50.0128
G01 X-0.1224 Y49.9996
G01 X-0.1272 Y49.9858
G01 X-0.1469 Y49.9188
G01 X-0.1503 Y49.9046
G01 X-0.1524 Y49.8901
G01 X-0.1531 Y49.8755
G01 X-0.1531 Y0.1245
G01 X-0.1522 Y0.1081
G01 X-0.1496 Y0.0918
G00 Z2.0000
G00 X-0.2246 Y0.0755
G01 F60.00
G01 Z-0.1000
G01 F120.00
G01 X-0.2134 Y0.0240
G01 X-0.2061 Y-0.0021
G01 X-0.1958 Y-0.0272
G01 X-0.1851 Y-0.0468
G01 X-0.1744 Y-0.0628
G01 X-0.1624 Y-0.0779
G01 X-0.1167 Y-0.1307
G01 X-0.1015 Y-0.1466
G01 X-0.0848 Y-0.1611
G01 X-0.0668 Y-0.1738
G01 X-0.0479 Y-0.1847
G01 X-0.0281 Y-0.1937
G01 X-0.0075 Y-0.2009
G01 X0.0596 Y-0.2206
G01 X0.0809 Y-0.2257
G01 X0.1026 Y-0.2289
G01 X0.1245 Y-0.2299
G01 X87.8755 Y-0.2299
G01 X87.9001 Y-0.2286
G01 X87.9245 Y-0.2246
G01 X87.9760 Y-0.2134
G01 X88.0021 Y-0.2061
G01 X88.0272 Y-0.1958
G01 X88.0468 Y-0.1851
G01 X88.0628 Y-0.1744
G01 X88.0779 Y-0.1624
G01 X88.1307 Y-0.1167
G01 X88.1466 Y-0.1015
G01 X88.1611 Y-0.0848
G01 X88.1738 Y-0.0668
G01 X88.1847 Y-0.0479
G01 X88.1937 Y-0.0281
G01 X88.2009 Y-0.0075
G01 X88.2206 Y0.0596
G01 X88.2257 Y0.0809
G01 X88.2289 Y0.1026
G01 X88.2299 Y0.1245
G01 X88.2299 Y49.8755
G01 X88.2286 Y49.9001
G01 X88.2246 Y49.9245
G01 X88.2134 Y49.9760
G01 X88.2061 Y50.0021
G01 X88.1958 Y50.0272
G01 X88.1851 Y50.0468
G01 X88.1744 Y50.0628
G01 X88.1624 Y50.0779
G01 X88.1167 Y50.1307
G01 X88.1015 Y50.1466
G01 X88.0848 Y50.1611
G01 X88.0668 Y50.1738
G01 X88.0479 Y50.1847
G01 X88.0281 Y50.1937
G01 X88.0075 Y50.2009
G01 X87.9404 Y50.2206
G01 X87.9191 Y50.2257
G01 X87.8974 Y50.2289
G01 X87.8755 Y50.2299
G01 X0.1245 Y50.2299
G01 X0.0999 Y50.2286
G01 X0.0755 Y50.2246
G01 X0.0240 Y50.2134
G01 X-0.0021 Y50.2061
G01 X-0.0272 Y50.1958
G01 X-0.0468 Y50.1851
G01 X-0.0628 Y50.1744
G01 X-0.0779 Y50.1624
G01 X-0.1307 Y50.1167
G01 X-0.1466 Y50.1015
G01 X-0.1611 Y50.0848
G01 X-0.1738 Y50.0668
G01 X-0.1847 Y50.0479
G01 X-0.1937 Y50.0281
G01 X-0.2009 Y50.0075
G01 X-0.2206 Y49.9404
G01 X-0.2257 Y49.9191
G01 X-0.2289 Y49.8974
G01 X-0.2299 Y49.8755
G01 X-0.2299 Y0.1245
G01 X-0.2286 Y0.0999
G01 X-0.2246 Y0.0755
G00 Z2.0000
G00 X-0.2997 Y0.0592
G01 F60.00
G01 Z-0.1000
G01 F120.00
G01 X-0.2885 Y0.0077
G01 X-0.2787 Y-0.0271
G01 X-0.2649 Y-0.0606
G01 X-0.2507 Y-0.0867
G01 X-0.2365 Y-0.1081
G01 X-0.2205 Y-0.1282
G01 X-0.1747 Y-0.1810
G01 X-0.1544 Y-0.2022
G01 X-0.1322 Y-0.2215
G01 X-0.1083 Y-0.2385
G01 X-0.0831 Y-0.2530
G01 X-0.0566 Y-0.2651
G01 X-0.0291 Y-0.2746
G01 X0.0379 Y-0.2943
G01 X0.0664 Y-0.3011
G01 X0.0953 Y-0.3053
G01 X0.1245 Y-0.3067
G01 X87.8755 Y-0.3067
G01 X87.9083 Y-0.3049
G01 X87.9408 Y-0.2997
G01 X87.9923 Y-0.2885
G01 X88.0271 Y-0.2787
G01 X88.0606 Y-0.2649
G01 X88.0867 Y-0.2507
G01 X88.1081 Y-0.2365
G01 X88.1282 Y-0.2205
G01 X88.1810 Y-0.1747
G01 X88.2022 Y-0.1544
G01 X88.2215 Y-0.1322
G01 X88.2385 Y-0.1083
G01 X88.2530 Y-0.0831
G01 X88.2651 Y-0.0566
G01 X88.2746 Y-0.0291
G01 X88.2943 Y0.0379
G01 X88.3011 Y0.0664
G01 X88.3053 Y0.0953
G01 X88.3067 Y0.1245
G01 X88.3067 Y49.8755
G01 X88.3049 Y49.9083
G01 X88.2997 Y49.9408
G01 X88.2885 Y49.9923
G01 X88.2787 Y50.0271
G01 X88.2649 Y50.0606
G01 X88.2507 Y50.0867
G01 X88.2365 Y50.1081
G01 X88.2205 Y50.1282
G01 X88.1747 Y50.1810
G01 X88.1544 Y50.2022
G01 X88.1322 Y50.2215
G01 X88.1083 Y50.2385
G01 X88.0831 Y50.2530
G01 X88.0566 Y50.2651
G01 X88.0291 Y50.2746
G01 X87.9621 Y50.2943
G01 X87.9336 Y50.3011
G01 X87.9047 Y50.3053
G01 X87.8755 Y50.3067
G01 X0.1245 Y50.3067
G01 X0.0917 Y50.3049
G01 X0.0592 Y50.2997
G01 X0.0077 Y50.2885
G01 X-0.0271 Y50.2787
G01 X-0.0606 Y50.2649
G01 X-0.0867 Y50.2507
G01 X-0.1081 Y50.2365
G01 X-0.1282 Y50.2205
G01 X-0.1810 Y50.1747
G01 X-0.2022 Y50.1544
G01 X-0.2215 Y50.1322
G01 X-0.2385 Y50.1083
G01 X-0.2530 Y50.0831
G01 X-0.2651 Y50.0566
G01 X-0.2746 Y50.0291
G01 X-0.2943 Y49.9621
G01 X-0.3011 Y49.9336
G01 X-0.3053 Y49.9047
G01 X-0.3067 Y49.8755
G01 X-0.3067 Y0.1245
G01 X-0.3049 Y0.0917
G01 X-0.2997 Y0.0592
G00 Z2.0000
G00 X-0.3747 Y0.0429
G01 F60.00
G01 Z-0.1000
G01 F120.00
G01 X-0.3635 Y-0.0086
G01 X-0.3513 Y-0.0522
G01 X-0.3341 Y-0.0940
G01 X-0.3163 Y-0.1266
G01 X-0.2985 Y-0.1533
G01 X-0.2785 Y-0.1785
G01 X-0.2327 Y-0.2313
G01 X-0.2074 Y-0.2579
G01 X-0.1796 Y-0.2819
G01 X-0.1497 Y-0.3031
G01 X-0.1182 Y-0.3213
G01 X-0.0851 Y-0.3364
G01 X-0.0507 Y-0.3483
G01 X0.0163 Y-0.3679
G01 X0.0518 Y-0.3766
G01 X0.0880 Y-0.3818
G01 X0.1245 Y-0.3835
G01 X87.8755 Y-0.3835
G01 X87.9165 Y-0.3813
G01 X87.9571 Y-0.3747
G01 X88.0086 Y-0.3635
G01 X88.0522 Y-0.3513
G01 X88.0940 Y-0.3341
G01 X88.1266 Y-0.3163
G01 X88.1533 Y-0.2985
G01 X88.1785 Y-0.2785
G01 X88.2313 Y-0.2327
G01 X88.2579 Y-0.2074
G01 X88.2819 Y-0.1796
G01 X88.3031 Y-0.1497
G01 X88.3213 Y-0.1182
G01 X88.3364 Y-0.0851
G01 X88.3483 Y-0.0507
G01 X88.3679 Y0.0163
G01 X88.3766 Y0.0518
G01 X88.3818 Y0.0880
G01 X88.3835 Y0.1245
G01 X88.3835 Y49.8755
G01 X88.3813 Y49.9165
G01 X88.3747 Y49.9571
G01 X88.3635 Y50.0086
G01 X88.3513 Y50.0522
G01 X88.3341 Y50.0940
G01 X88.3163 Y50.1266
G01 X88.2985 Y50.1533
G01 X88.2785 Y50.1785
G01 X88.2327 Y50.2313
G01 X88.2074 Y50.2579
G01 X88.1796 Y50.2819
G01 X88.1497 Y50.3031
G01 X88.1182 Y50.3213
G01 X88.0851 Y50.3364
G01 X88.0507 Y50.3483
G01 X87.9837 Y50.3679
G01 X87.9482 Y50.3766
G01 X87.9120 Y50.3818
G01 X87.8755 Y50.3835
G01 X0.1245 Y50.3835
G01 X0.0835 Y50.3813
G01 X0.0429 Y50.3747
G01 X-0.0086 Y50.3635
G01 X-0.0522 Y50.3513
G01 X-0.0940 Y50.3341
G01 X-0.1266 Y50.3163
G01 X-0.1533 Y50.2985
G01 X-0.1785 Y50.2785
G01 X-0.2313 Y50.2327
G01 X-0.2579 Y50.2074
G01 X-0.2819 Y50.1796
G01 X-0.3031 Y50.1497
G01 X-0.3213 Y50.1182
G01 X-0.3364 Y50.0851
G01 X-0.3483 Y50.0507
G01 X-0.3679 Y49.9837
G01 X-0.3766 Y49.9482
G01 X-0.3818 Y49.9120
G01 X-0.3835 Y49.8755
G01 X-0.3835 Y0.1245
G01 X-0.3813 Y0.0835
G01 X-0.3747 Y0.0429
G00 Z2.0000
G00 X4.5763 Y13.1121
G01 F60.00
G01 Z-0.1000
G01 F120.00
G01 X4.5763 Y12.8879
G01 X4.6114 Y12.6666
G01 X4.6806 Y12.4535
G01 X4.7823 Y12.2538
G01 X4.9141 Y12.0725
G01 X5.0725 Y11.9141
G01 X5.2538 Y11.7823
G01 X5.4535 Y11.6806
G01 X5.6666 Y11.6114
G01 X5.8879 Y11.5763
G01 X6.1121 Y11.5763
G01 X6.3334 Y11.6114
G01 X6.5465 Y11.6806
G01 X6.7462 Y11.7823
G01 X6.9275 Y11.9141
G01 X7.0859 Y12.0725
G01 X7.2177 Y12.2538
G01 X7.3194 Y12.4535
G01 X7.3886 Y12.6666
G01 X7.4237 Y12.8879
G01 X7.4237 Y13.1121
G01 X7.3886 Y13.3334
G01 X7.3194 Y13.5465
G01 X7.2177 Y13.7462
G01 X7.0859 Y13.9275
G01 X6.9275 Y14.0859
G01 X6.7462 Y14.2177
G01 X6.5465 Y14.3194
G01 X6.3334 Y14.3886
G01 X6.1121 Y14.4237
G01 X5.8879 Y14.4237
G01 X5.6666 Y14.3886
G01 X5.4535 Y14.3194
G01 X5.2538 Y14.2177
G01 X5.0725 Y14.0859
G01 X4.9141 Y13.9275
G01 X4.7823 Y13.7462
G01 X4.6806 Y13.5465
G01 X4.6114 Y13.3334
G01 X4.5763 Y13.1121
G00 Z2.0000
G00 X4.6531 Y13.1060
G01 F60.00
G01 Z-0.1000
G01 F120.00
G01 X4.6531 Y12.8940
G01 X4.6863 Y12.6846
G01 X4.7518 Y12.4830
G01 X4.8480 Y12.2941
G01 X4.9726 Y12.1226
G01 X5.1226 Y11.9726
G01 X5.2941 Y11.8480
G01 X5.4830 Y11.7518
G01 X5.6846 Y11.6863
G01 X5.8940 Y11.6531
G01 X6.1060 Y11.6531
G01 X6.3154 Y11.6863
G01 X6.5170 Y11.7518
G01 X6.7059 Y11.8480
G01 X6.8774 Y11.9726
G01 X7.0274 Y12.1226
G01 X7.1520 Y12.2941
G01 X7.2482 Y12.4830
G01 X7.3137 Y12.6846
G01 X7.3469 Y12.8940
G01 X7.3469 Y13.1060
G01 X7.3137 Y13.3154
G01 X7.2482 Y13.5170
G01 X7.1520 Y13.7059
G01 X7.0274 Y13.8774
G01 X6.8774 Y14.0274
G01 X6.7059 Y14.1520
G01 X6.5170 Y14.2482
G01 X6.3154 Y14.3137
G01 X6.1060 Y14.3469
G01 X5.8940 Y14.3469
G01 X5.6846 Y14.3137
G01 X5.4830 Y14.2482
G01 X5.2941 Y14.1520
G01 X5.1226 Y14.0274
G01 X4.9726 Y13.8775
G01 X4.8480 Y13.7059
G01 X4.7518 Y13.5170
G01 X4.6863 Y13.3154
G01 X4.6531 Y13.1060
G00 Z2.0000
G00 X4.7299 Y13.1000
G01 F60.00
G01 Z-0.1000
G01 F120.00
G01 X4.7299 Y12.9000
G01 X4.7612 Y12.7026
G01 X4.8230 Y12.5124
G01 X4.9137 Y12.3343
G01 X5.0312 Y12.1726
G01 X5.1726 Y12.0312
G01 X5.3343 Y11.9137
G01 X5.5124 Y11.8230
G01 X5.7026 Y11.7612
G01 X5.9000 Y11.7299
G01 X6.1000 Y11.7299
G01 X6.2974 Y11.7612
G01 X6.4875 Y11.8230
G01 X6.6657 Y11.9137
G01 X6.8274 Y12.0312
G01 X6.9688 Y12.1726
G01 X7.0863 Y12.3343
G01 X7.1770 Y12.5125
G01 X7.2388 Y12.7026
G01 X7.2701 Y12.9000
G01 X7.2701 Y13.1000
G01 X7.2388 Y13.2974
G01 X7.1770 Y13.4876
G01 X7.0863 Y13.6657
G01 X6.9688 Y13.8274
G01 X6.8274 Y13.9688
G01 X6.6657 Y14.0863
G01 X6.4876 Y14.1770
G01 X6.2974 Y14.2388
G01 X6.1000 Y14.2701
G01 X5.9000 Y14.2701
G01 X5.7026 Y14.2388
G01 X5.5124 Y14.1770
G01 X5.3343 Y14.0863
G01 X5.1726 Y13.9688
G01 X5.0312 Y13.8274
G01 X4.9137 Y13.6657
G01 X4.8230 Y13.4876
G01 X4.7612 Y13.2974
G01 X4.7299 Y13.1000
G00 Z2.0000
G00 X4.7751 Y13.1093
G01 F60.00
G01 Z-0.1000
G01 F120.00
G01 X4.7747 Y13.1093
G01 X4.7699 Y13.0113
G01 X4.7699 Y12.9887
G01 X4.7747 Y12.8907
G01 X4.7769 Y12.8682
G01 X4.7917 Y12.7683
G01 X4.7957 Y12.7489
G01 X4.8196 Y12.6537
G01 X4.8264 Y12.6322
G01 X4.8261 Y12.6321
G01 X4.8592 Y12.5397
G01 X4.8678 Y12.5188
G01 X4.9098 Y12.4301
G01 X4.9205 Y12.4102
G01 X4.9709 Y12.3260
G01 X4.9823 Y12.3087
G01 X5.0419 Y12.2284
G01 X5.0566 Y12.2112
G01 X5.0563 Y12.2109
G01 X5.1222 Y12.1382
G01 X5.1382 Y12.1222
G01 X5.2109 Y12.0563
G01 X5.2284 Y12.0419
G01 X5.3072 Y11.9835
G01 X5.3260 Y11.9709
G01 X5.4102 Y11.9205
G01 X5.4301 Y11.9098
G01 X5.5188 Y11.8678
G01 X5.5397 Y11.8592
G01 X5.6321 Y11.8261
G01 X5.6537 Y11.8196
G01 X5.7489 Y11.7957
G01 X5.7683 Y11.7917
G01 X5.8682 Y11.7769
G01 X5.8907 Y11.7751
G01 X5.8907 Y11.7747
G01 X5.9887 Y11.7699
G01 X6.0113 Y11.7699
G01 X6.1093 Y11.7747
G01 X6.1318 Y11.7769
G01 X6.2289 Y11.7913
G01 X6.2511 Y11.7957
G01 X6.3463 Y11.8196
G01 X6.3678 Y11.8264
G01 X6.3679 Y11.8261
G01 X6.4603 Y11.8592
G01 X6.4812 Y11.8678
G01 X6.5699 Y11.9098
G01 X6.5898 Y11.9205
G01 X6.6740 Y11.9709
G01 X6.6913 Y11.9823
G01 X6.7716 Y12.0419
G01 X6.7888 Y12.0566
G01 X6.7891 Y12.0563
G01 X6.8618 Y12.1222
G01 X6.8778 Y12.1382
G01 X6.9437 Y12.2109
G01 X6.9581 Y12.2284
G01 X7.0165 Y12.3072
G01 X7.0291 Y12.3260
G01 X7.0795 Y12.4102
G01 X7.0902 Y12.4301
G01 X7.1322 Y12.5188
G01 X7.1408 Y12.5397
G01 X7.1739 Y12.6321
G01 X7.1804 Y12.6537
G01 X7.2043 Y12.7489
G01 X7.2083 Y12.7683
G01 X7.2231 Y12.8682
G01 X7.2249 Y12.8907
G01 X7.2253 Y12.8907
G01 X7.2301 Y12.9887
G01 X7.2301 Y13.0113
G01 X7.2253 Y13.1093
G01 X7.2231 Y13.1318
G01 X7.2087 Y13.2289
G01 X7.2043 Y13.2511
G01 X7.1804 Y13.3463
G01 X7.1736 Y13.3678
G01 X7.1739 Y13.3679
G01 X7.1408 Y13.4603
G01 X7.1322 Y13.4812
G01 X7.0902 Y13.5699
G01 X7.0795 Y13.5898
G01 X7.0291 Y13.6740
G01 X7.0177 Y13.6913
G01 X6.9581 Y13.7716
G01 X6.9434 Y13.7888
G01 X6.9437 Y13.7891
G01 X6.8778 Y13.8618
G01 X6.8618 Y13.8778
G01 X6.7891 Y13.9437
G01 X6.7716 Y13.9581
G01 X6.6928 Y14.0165
G01 X6.6740 Y14.0291
G01 X6.5898 Y14.0795
G01 X6.5699 Y14.0902
G01 X6.4812 Y14.1322
G01 X6.4603 Y14.1408
G01 X6.3679 Y14.1739
G01 X6.3463 Y14.1804
G01 X6.2511 Y14.2043
G01 X6.2317 Y14.2083
G01 X6.1318 Y14.2231
G01 X6.1093 Y14.2249
G01 X6.1093 Y14.2253
G01 X6.0113 Y14.2301
G01 X5.9887 Y14.2301
G01 X5.8907 Y14.2253
G01 X5.8682 Y14.2231
G01 X5.7711 Y14.2087
G01 X5.7489 Y14.2043
G01 X5.6537 Y14.1804
G01 X5.6322 Y14.1736
G01 X5.6321 Y14.1739
G01 X5.5397 Y14.1408
G01 X5.5188 Y14.1322
G01 X5.4301 Y14.0902
G01 X5.4102 Y14.0795
G01 X5.3260 Y14.0291
G01 X5.3087 Y14.0177
G01 X5.2284 Y13.9581
G01 X5.2112 Y13.9434
G01 X5.2109 Y13.9437
G01 X5.1382 Y13.8778
G01 X5.1222 Y13.8618
G01 X5.0563 Y13.7891
G01 X5.0419 Y13.7716
G01 X4.9835 Y13.6928
G01 X4.9709 Y13.6740
G01 X4.9205 Y13.5898
G01 X4.9098 Y13.5699
G01 X4.8678 Y13.4812
G01 X4.8592 Y13.4603
G01 X4.8261 Y13.3679
G01 X4.8196 Y13.3463
G01 X4.7957 Y13.2511
G01 X4.7919 Y13.2326
G01 X4.7769 Y13.1318
G01 X4.7751 Y13.1093
G00 Z2.0000
G00 X4.8516 Y13.1055
G01 F60.00
G01 Z-0.1000
G01 F120.00
G01 X4.8466 Y13.0075
G01 X4.8466 Y12.9925
G01 X4.8514 Y12.8944
G01 X4.8529 Y12.8794
G01 X4.8676 Y12.7805
G01 X4.8702 Y12.7676
G01 X4.8941 Y12.6724
G01 X4.8984 Y12.6580
G01 X4.9315 Y12.5656
G01 X4.9373 Y12.5516
G01 X4.9792 Y12.4629
G01 X4.9863 Y12.4496
G01 X5.0368 Y12.3655
G01 X5.0444 Y12.3540
G01 X5.1036 Y12.2741
G01 X5.1134 Y12.2627
G01 X5.1132 Y12.2625
G01 X5.1791 Y12.1897
G01 X5.1897 Y12.1791
G01 X5.2625 Y12.1132
G01 X5.2741 Y12.1036
G01 X5.3529 Y12.0452
G01 X5.3655 Y12.0368
G01 X5.4496 Y11.9863
G01 X5.4629 Y11.9792
G01 X5.5516 Y11.9373
G01 X5.5656 Y11.9315
G01 X5.6580 Y11.8984
G01 X5.6724 Y11.8941
G01 X5.7676 Y11.8702
G01 X5.7805 Y11.8676
G01 X5.8794 Y11.8529
G01 X5.8944 Y11.8514
G01 X5.9925 Y11.8466
G01 X6.0075 Y11.8466
G01 X6.1056 Y11.8514
G01 X6.1206 Y11.8529
G01 X6.2176 Y11.8673
G01 X6.2324 Y11.8702
G01 X6.3276 Y11.8941
G01 X6.3420 Y11.8984
G01 X6.4344 Y11.9315
G01 X6.4484 Y11.9373
G01 X6.5371 Y11.9792
G01 X6.5504 Y11.9863
G01 X6.6345 Y12.0368
G01 X6.6460 Y12.0444
G01 X6.7259 Y12.1036
G01 X6.7373 Y12.1134
G01 X6.7375 Y12.1132
G01 X6.8103 Y12.1791
G01 X6.8209 Y12.1897
G01 X6.8868 Y12.2625
G01 X6.8964 Y12.2741
G01 X6.9548 Y12.3529
G01 X6.9632 Y12.3655
G01 X7.0137 Y12.4496
G01 X7.0208 Y12.4629
G01 X7.0627 Y12.5516
G01 X7.0685 Y12.5656
G01 X7.1016 Y12.6580
G01 X7.1059 Y12.6724
G01 X7.1298 Y12.7676
G01 X7.1324 Y12.7805
G01 X7.1471 Y12.8794
G01 X7.1486 Y12.8944
G01 X7.1534 Y12.9925
G01 X7.1534 Y13.0075
G01 X7.1486 Y13.1056
G01 X7.1471 Y13.1206
G01 X7.1327 Y13.2176
G01 X7.1298 Y13.2324
G01 X7.1059 Y13.3276
G01 X7.1016 Y13.3420
G01 X7.0685 Y13.4344
G01 X7.0627 Y13.4484
G01 X7.0208 Y13.5371
G01 X7.0137 Y13.5504
G01 X6.9632 Y13.6345
G01 X6.9556 Y13.6460
G01 X6.8964 Y13.7259
G01 X6.8866 Y13.7373
G01 X6.8868 Y13.7375
G01 X6.8209 Y13.8103
G01 X6.8103 Y13.8209
G01 X6.7375 Y13.8868
G01 X6.7259 Y13.8964
G01 X6.6471 Y13.9548
G01 X6.6345 Y13.9632
G01 X6.5504 Y14.0137
G01 X6.5371 Y14.0208
G01 X6.4484 Y14.0627
G01 X6.4344 Y14.0685
G01 X6.3420 Y14.1016
G01 X6.3276 Y14.1059
G01 X6.2324 Y14.1298
G01 X6.2195 Y14.1324
G01 X6.1206 Y14.1471
G01 X6.1056 Y14.1486
G01 X6.0075 Y14.1534
G01 X5.9925 Y14.1534
G01 X5.8944 Y14.1486
G01 X5.8794 Y14.1471
G01 X5.7824 Y14.1327
G01 X5.7676 Y14.1298
G01 X5.6724 Y14.1059
G01 X5.6580 Y14.1016
G01 X5.5656 Y14.0685
G01 X5.5516 Y14.0627
G01 X5.4629 Y14.0208
G01 X5.4496 Y14.0137
G01 X5.3655 Y13.9632
G01 X5.3540 Y13.9556
G01 X5.2741 Y13.8964
G01 X5.2627 Y13.8866
G01 X5.2625 Y13.8868
G01 X5.1897 Y13.8209
G01 X5.1791 Y13.8103
G01 X5.1132 Y13.7375
G01 X5.1036 Y13.7259
G01 X5.0452 Y13.6471
G01 X5.0368 Y13.6345
G01 X4.9863 Y13.5504
G01 X4.9792 Y13.5371
G01 X4.9373 Y13.4484
G01 X4.9315 Y13.4344
G01 X4.8984 Y13.3420
G01 X4.8941 Y13.3276
G01 X4.8702 Y13.2324
G01 X4.8677 Y13.2201
G01 X4.8529 Y13.1206
G01 X4.8516 Y13.1055
G00 Z2.0000
G00 X4.9282 Y13.1018
G01 F60.00
G01 Z-0.1000
G01 F120.00
G01 X4.9233 Y13.0038
G01 X4.9233 Y12.9962
G01 X4.9281 Y12.8982
G01 X4.9288 Y12.8907
G01 X4.9434 Y12.7927
G01 X4.9447 Y12.7862
G01 X4.9686 Y12.6911
G01 X4.9707 Y12.6838
G01 X5.0038 Y12.5914
G01 X5.0067 Y12.5845
G01 X5.0487 Y12.4958
G01 X5.0522 Y12.4891
G01 X5.1027 Y12.4049
G01 X5.1065 Y12.3992
G01 X5.1653 Y12.3199
G01 X5.1701 Y12.3140
G01 X5.2360 Y12.2413
G01 X5.2413 Y12.2360
G01 X5.3140 Y12.1701
G01 X5.3199 Y12.1653
G01 X5.3987 Y12.1068
G01 X5.4049 Y12.1027
G01 X5.4891 Y12.0522
G01 X5.4958 Y12.0487
G01 X5.5845 Y12.0067
G01 X5.5914 Y12.0038
G01 X5.6838 Y11.9707
G01 X5.6911 Y11.9686
G01 X5.7862 Y11.9447
G01 X5.7927 Y11.9434
G01 X5.8907 Y11.9288
G01 X5.8982 Y11.9281
G01 X5.9962 Y11.9233
G01 X6.0038 Y11.9233
G01 X6.1018 Y11.9281
G01 X6.1093 Y11.9288
G01 X6.2064 Y11.9432
G01 X6.2138 Y11.9447
G01 X6.3089 Y11.9686
G01 X6.3162 Y11.9707
G01 X6.4086 Y12.0038
G01 X6.4155 Y12.0067
G01 X6.5042 Y12.0487
G01 X6.5109 Y12.0522
G01 X6.5951 Y12.1027
G01 X6.6008 Y12.1065
G01 X6.6801 Y12.1653
G01 X6.6860 Y12.1701
G01 X6.7587 Y12.2360
G01 X6.7640 Y12.2413
G01 X6.8299 Y12.3140
G01 X6.8347 Y12.3199
G01 X6.8932 Y12.3987
G01 X6.8973 Y12.4049
G01 X6.9478 Y12.4891
G01 X6.9513 Y12.4958
G01 X6.9933 Y12.5845
G01 X6.9962 Y12.5914
G01 X7.0293 Y12.6838
G01 X7.0314 Y12.6911
G01 X7.0553 Y12.7862
G01 X7.0566 Y12.7927
G01 X7.0712 Y12.8907
G01 X7.0719 Y12.8982
G01 X7.0767 Y12.9962
G01 X7.0767 Y13.0038
G01 X7.0719 Y13.1018
G01 X7.0712 Y13.1093
G01 X7.0568 Y13.2064
G01 X7.0553 Y13.2138
G01 X7.0314 Y13.3089
G01 X7.0293 Y13.3162
G01 X6.9962 Y13.4086
G01 X6.9933 Y13.4155
G01 X6.9513 Y13.5042
G01 X6.9478 Y13.5109
G01 X6.8973 Y13.5951
G01 X6.8935 Y13.6008
G01 X6.8347 Y13.6801
G01 X6.8299 Y13.6860
G01 X6.7640 Y13.7587
G01 X6.7587 Y13.7640
G01 X6.6860 Y13.8299
G01 X6.6801 Y13.8347
G01 X6.6013 Y13.8932
G01 X6.5951 Y13.8973
G01 X6.5109 Y13.9478
G01 X6.5042 Y13.9513
G01 X6.4155 Y13.9933
G01 X6.4086 Y13.9962
G01 X6.3162 Y14.0293
G01 X6.3089 Y14.0314
G01 X6.2138 Y14.0553
G01 X6.2073 Y14.0566
G01 X6.1093 Y14.0712
G01 X6.1018 Y14.0719
G01 X6.0038 Y14.0767
G01 X5.9962 Y14.0767
G01 X5.8982 Y14.0719
G01 X5.8907 Y14.0712
G01 X5.7936 Y14.0568
G01 X5.7862 Y14.0553
G01 X5.6911 Y14.0314
G01 X5.6838 Y14.0293
G01 X5.5914 Y13.9962
G01 X5.5845 Y13.9933
G01 X5.4958 Y13.9513
G01 X5.4891 Y13.9478
G01 X5.4049 Y13.8973
G01 X5.3992 Y13.8935
G01 X5.3199 Y13.8347
G01 X5.3140 Y13.8299
G01 X5.2413 Y13.7640
G01 X5.2360 Y13.7587
G01 X5.1701 Y13.6860
G01 X5.1653 Y13.6801
G01 X5.1068 Y13.6013
G01 X5.1027 Y13.5951
G01 X5.0522 Y13.5109
G01 X5.0487 Y13.5042
G01 X5.0067 Y13.4155
G01 X5.0038 Y13.4086
G01 X4.9707 Y13.3162
G01 X4.9686 Y13.3089
G01 X4.9434 Y13.2076
G01 X4.9288 Y13.1093
G01 X4.9282 Y13.1018
G00 Z2.0000
G00 X4.9282 Y17.6018
G01 F60.00
G01 Z-0.1000
G01 F120.00
G01 X4.9233 Y17.5038
G01 X4.9233 Y17.4962
G01 X4.9281 Y17.3982
G01 X4.9288 Y17.3907
G01 X4.9432 Y17.2936
G01 X4.9447 Y17.2862
G01 X4.9686 Y17.1911
G01 X4.9707 Y17.1838
G01 X5.0038 Y17.0914
G01 X5.0067 Y17.0845
G01 X5.0487 Y16.9958
G01 X5.0522 Y16.9891
G01 X5.1027 Y16.9049
G01 X5.1065 Y16.8992
G01 X5.1653 Y16.8199
G01 X5.1701 Y16.8140
G01 X5.2360 Y16.7413
G01 X5.2413 Y16.7360
G01 X5.3140 Y16.6701
G01 X5.3199 Y16.6653
G01 X5.3987 Y16.6068
G01 X5.4049 Y16.6027
G01 X5.4891 Y16.5522
G01 X5.4958 Y16.5487
G01 X5.5845 Y16.5067
G01 X5.5914 Y16.5038
G01 X5.6838 Y16.4707
G01 X5.6911 Y16.4686
G01 X5.7862 Y16.4447
G01 X5.7927 Y16.4434
G01 X5.8907 Y16.4288
G01 X5.8982 Y16.4281
G01 X5.9962 Y16.4233
G01 X6.0038 Y16.4233
G01 X6.1018 Y16.4281
G01 X6.1093 Y16.4288
G01 X6.2064 Y16.4432
G01 X6.2138 Y16.4447
G01 X6.3089 Y16.4686
G01 X6.3162 Y16.4707
G01 X6.4086 Y16.5038
G01 X6.4155 Y16.5067
G01 X6.5042 Y16.5487
G01 X6.5109 Y16.5522
G01 X6.5951 Y16.6027
G01 X6.6008 Y16.6065
G01 X6.6801 Y16.6653
G01 X6.6860 Y16.6701
G01 X6.7587 Y16.7360
G01 X6.7640 Y16.7413
G01 X6.8299 Y16.8140
G01 X6.8347 Y16.8199
G01 X6.8932 Y16.8987
G01 X6.8973 Y16.9049
G01 X6.9478 Y16.9891
G01 X6.9513 Y16.9958
G01 X6.9933 Y17.0845
G01 X6.9962 Y17.0914
G01 X7.0293 Y17.1838
G01 X7.0314 Y17.1911
G01 X7.0566 Y17.2924
G01 X7.0712 Y17.3907
G01 X7.0719 Y17.3982
G01 X7.0767 Y17.4962
G01 X7.0767 Y17.5038
G01 X7.0719 Y17.6018
G01 X7.0712 Y17.6093
G01 X7.0568 Y17.7064
G01 X7.0553 Y17.7138
G01 X7.0314 Y17.8089
G01 X7.0293 Y17.8162
G01 X6.9962 Y17.9086
G01 X6.9933 Y17.9155
G01 X6.9513 Y18.0042
G01 X6.9478 Y18.0109
G01 X6.8973 Y18.0951
G01 X6.8935 Y18.1008
G01 X6.8347 Y18.1801
G01 X6.8299 Y18.1860
G01 X6.7640 Y18.2587
G01 X6.7587 Y18.2640
G01 X6.6860 Y18.3299
G01 X6.6801 Y18.3347
G01 X6.6013 Y18.3932
G01 X6.5951 Y18.3973
G01 X6.5109 Y18.4478
G01 X6.5042 Y18.4513
G01 X6.4155 Y18.4933
G01 X6.4086 Y18.4962
G01 X6.3162 Y18.5293
G01 X6.3089 Y18.5314
G01 X6.2138 Y18.5553
G01 X6.2073 Y18.5566
G01 X6.1769 Y18.5611
G01 X6.1769 Y36.7955
G01 X6.1886 Y36.7928
G01 X6.2081 Y36.7899
G01 X6.2156 Y36.7892
G01 X6.2380 Y36.7882
G01 X7.7658 Y36.7883
G01 X7.7844 Y36.7892
G01 X7.7919 Y36.7899
G01 X7.8104 Y36.7927
G01 X7.8178 Y36.7942
G01 X7.8360 Y36.7987
G01 X7.8432 Y36.8009
G01 X7.8608 Y36.8072
G01 X7.8677 Y36.8101
G01 X7.8846 Y36.8181
G01 X7.8913 Y36.8216
G01 X7.9131 Y36.8350
G01 X7.9286 Y36.8466
G01 X7.9344 Y36.8513
G01 X7.9483 Y36.8639
G01 X7.9536 Y36.8692
G01 X7.9662 Y36.8831
G01 X7.9709 Y36.8889
G01 X7.9821 Y36.9039
G01 X7.9863 Y36.9102
G01 X7.9959 Y36.9262
G01 X7.9994 Y36.9329
G01 X8.0074 Y36.9498
G01 X8.0103 Y36.9567
G01 X8.0166 Y36.9743
G01 X8.0188 Y36.9815
G01 X8.0246 Y37.0058
G01 X8.0276 Y37.0256
G01 X8.0283 Y37.0331
G01 X8.0293 Y37.0555
G01 X8.0293 Y37.9445
G01 X8.0283 Y37.9669
G01 X8.0276 Y37.9744
G01 X8.0248 Y37.9929
G01 X8.0233 Y38.0003
G01 X8.0188 Y38.0185
G01 X8.0166 Y38.0257
G01 X8.0103 Y38.0433
G01 X8.0074 Y38.0502
G01 X7.9994 Y38.0671
G01 X7.9959 Y38.0738
G01 X7.9863 Y38.0898
G01 X7.9825 Y38.0956
G01 X7.9709 Y38.1111
G01 X7.9662 Y38.1169
G01 X7.9536 Y38.1308
G01 X7.9483 Y38.1361
G01 X7.9344 Y38.1487
G01 X7.9286 Y38.1534
G01 X7.9136 Y38.1646
G01 X7.9073 Y38.1688
G01 X7.8913 Y38.1784
G01 X7.8846 Y38.1819
G01 X7.8677 Y38.1899
G01 X7.8608 Y38.1928
G01 X7.8432 Y38.1991
G01 X7.8360 Y38.2013
G01 X7.8114 Y38.2072
G01 X7.7919 Y38.2101
G01 X7.7844 Y38.2108
G01 X7.7620 Y38.2118
G01 X6.2380 Y38.2118
G01 X6.2156 Y38.2108
G01 X6.2081 Y38.2101
G01 X6.1896 Y38.2073
G01 X6.1822 Y38.2058
G01 X6.1640 Y38.2013
G01 X6.1568 Y38.1991
G01 X6.1392 Y38.1928
G01 X6.1323 Y38.1899
G01 X6.1154 Y38.1819
G01 X6.1087 Y38.1784
G01 X6.0927 Y38.1688
G01 X6.0869 Y38.1650
G01 X6.0714 Y38.1534
G01 X6.0656 Y38.1487
G01 X6.0517 Y38.1361
G01 X6.0464 Y38.1308
G01 X6.0338 Y38.1169
G01 X6.0291 Y38.1111
G01 X6.0179 Y38.0961
G01 X6.0137 Y38.0898
G01 X6.0041 Y38.0738
G01 X6.0006 Y38.0671
G01 X5.9926 Y38.0502
G01 X5.9897 Y38.0433
G01 X5.9834 Y38.0257
G01 X5.9812 Y38.0185
G01 X5.9767 Y38.0003
G01 X5.9754 Y37.9942
G01 X5.9724 Y37.9744
G01 X5.9717 Y37.9669
G01 X5.9707 Y37.9445
G01 X5.9707 Y37.2208
G01 X5.8749 Y37.1251
G01 X5.8658 Y37.1150
G01 X5.8551 Y37.1013
G01 X5.8459 Y37.0866
G01 X5.8423 Y37.0800
G01 X5.8353 Y37.0642
G01 X5.8298 Y37.0477
G01 X5.8261 Y37.0320
G01 X5.8245 Y37.0211
G01 X5.8237 Y37.0136
G01 X5.8231 Y37.0000
G01 X5.8231 Y18.5611
G01 X5.7936 Y18.5568
G01 X5.7862 Y18.5553
G01 X5.6911 Y18.5314
G01 X5.6838 Y18.5293
G01 X5.5914 Y18.4962
G01 X5.5845 Y18.4933
G01 X5.4958 Y18.4513
G01 X5.4891 Y18.4478
G01 X5.4049 Y18.3973
G01 X5.3992 Y18.3935
G01 X5.3199 Y18.3347
G01 X5.3140 Y18.3299
G01 X5.2413 Y18.2640
G01 X5.2360 Y18.2587
G01 X5.1701 Y18.1860
G01 X5.1653 Y18.1801
G01 X5.1068 Y18.1013
G01 X5.1027 Y18.0951
G01 X5.0522 Y18.0109
G01 X5.0487 Y18.0042
G01 X5.0067 Y17.9155
G01 X5.0038 Y17.9086
G01 X4.9707 Y17.8162
G01 X4.9686 Y17.8089
G01 X4.9447 Y17.7138
G01 X4.9432 Y17.7064
G01 X4.9288 Y17.6093
G01 X4.9282 Y17.6018
G00 Z2.0000
G00 X4.8516 Y17.6055
G01 F60.00
G01 Z-0.1000
G01 F120.00
G01 X4.8466 Y17.5075
G01 X4.8466 Y17.4925
G01 X4.8514 Y17.3944
G01 X4.8529 Y17.3794
G01 X4.8673 Y17.2824
G01 X4.8702 Y17.2676
G01 X4.8941 Y17.1724
G01 X4.8984 Y17.1580
G01 X4.9315 Y17.0656
G01 X4.9373 Y17.0516
G01 X4.9792 Y16.9629
G01 X4.9863 Y16.9496
G01 X5.0368 Y16.8655
G01 X5.0444 Y16.8540
G01 X5.1036 Y16.7741
G01 X5.1134 Y16.7627
G01 X5.1132 Y16.7625
G01 X5.1791 Y16.6897
G01 X5.1897 Y16.6791
G01 X5.2625 Y16.6132
G01 X5.2741 Y16.6036
G01 X5.3529 Y16.5452
G01 X5.3655 Y16.5368
G01 X5.4496 Y16.4863
G01 X5.4629 Y16.4792
G01 X5.5516 Y16.4373
G01 X5.5656 Y16.4315
G01 X5.6580 Y16.3984
G01 X5.6724 Y16.3941
G01 X5.7676 Y16.3702
G01 X5.7805 Y16.3676
G01 X5.8794 Y16.3529
G01 X5.8944 Y16.3514
G01 X5.9925 Y16.3466
G01 X6.0075 Y16.3466
G01 X6.1056 Y16.3514
G01 X6.1206 Y16.3529
G01 X6.2176 Y16.3673
G01 X6.2324 Y16.3702
G01 X6.3276 Y16.3941
G01 X6.3420 Y16.3984
G01 X6.4344 Y16.4315
G01 X6.4484 Y16.4373
G01 X6.5371 Y16.4792
G01 X6.5504 Y16.4863
G01 X6.6345 Y16.5368
G01 X6.6460 Y16.5444
G01 X6.7259 Y16.6036
G01 X6.7373 Y16.6134
G01 X6.7375 Y16.6132
G01 X6.8103 Y16.6791
G01 X6.8209 Y16.6897
G01 X6.8868 Y16.7625
G01 X6.8964 Y16.7741
G01 X6.9548 Y16.8529
G01 X6.9632 Y16.8655
G01 X7.0137 Y16.9496
G01 X7.0208 Y16.9629
G01 X7.0627 Y17.0516
G01 X7.0685 Y17.0656
G01 X7.1016 Y17.1580
G01 X7.1059 Y17.1724
G01 X7.1298 Y17.2676
G01 X7.1323 Y17.2799
G01 X7.1471 Y17.3794
G01 X7.1486 Y17.3944
G01 X7.1534 Y17.4925
G01 X7.1534 Y17.5075
G01 X7.1486 Y17.6056
G01 X7.1471 Y17.6206
G01 X7.1327 Y17.7176
G01 X7.1298 Y17.7324
G01 X7.1059 Y17.8276
G01 X7.1016 Y17.8420
G01 X7.0685 Y17.9344
G01 X7.0627 Y17.9484
G01 X7.0208 Y18.0371
G01 X7.0137 Y18.0504
G01 X6.9632 Y18.1345
G01 X6.9556 Y18.1460
G01 X6.8964 Y18.2259
G01 X6.8866 Y18.2373
G01 X6.8868 Y18.2375
G01 X6.8209 Y18.3103
G01 X6.8103 Y18.3209
G01 X6.7375 Y18.3868
G01 X6.7259 Y18.3964
G01 X6.6471 Y18.4548
G01 X6.6345 Y18.4632
G01 X6.5504 Y18.5137
G01 X6.5371 Y18.5208
G01 X6.4484 Y18.5627
G01 X6.4344 Y18.5685
G01 X6.3420 Y18.6016
G01 X6.3276 Y18.6059
G01 X6.2537 Y18.6245
G01 X6.2537 Y36.7114
G01 X7.7620 Y36.7114
G01 X7.7882 Y36.7125
G01 X7.8032 Y36.7140
G01 X7.8217 Y36.7167
G01 X7.8365 Y36.7197
G01 X7.8546 Y36.7242
G01 X7.8690 Y36.7286
G01 X7.8866 Y36.7349
G01 X7.9006 Y36.7406
G01 X7.9175 Y36.7486
G01 X7.9308 Y36.7557
G01 X7.9468 Y36.7654
G01 X7.9583 Y36.7730
G01 X7.9744 Y36.7849
G01 X7.9858 Y36.7946
G01 X7.9860 Y36.7944
G01 X7.9999 Y36.8070
G01 X8.0105 Y36.8176
G01 X8.0231 Y36.8315
G01 X8.0326 Y36.8431
G01 X8.0438 Y36.8582
G01 X8.0521 Y36.8707
G01 X8.0618 Y36.8867
G01 X8.0689 Y36.9000
G01 X8.0769 Y36.9169
G01 X8.0826 Y36.9309
G01 X8.0889 Y36.9485
G01 X8.0933 Y36.9629
G01 X8.0978 Y36.9810
G01 X8.1004 Y36.9933
G01 X8.1035 Y37.0143
G01 X8.1050 Y37.0293
G01 X8.1061 Y37.0555
G01 X8.1061 Y37.9445
G01 X8.1050 Y37.9707
G01 X8.1035 Y37.9857
G01 X8.1008 Y38.0042
G01 X8.0978 Y38.0190
G01 X8.0933 Y38.0371
G01 X8.0889 Y38.0515
G01 X8.0826 Y38.0691
G01 X8.0769 Y38.0831
G01 X8.0689 Y38.1000
G01 X8.0618 Y38.1133
G01 X8.0521 Y38.1293
G01 X8.0445 Y38.1408
G01 X8.0326 Y38.1569
G01 X8.0229 Y38.1683
G01 X8.0231 Y38.1685
G01 X8.0105 Y38.1824
G01 X7.9999 Y38.1930
G01 X7.9860 Y38.2056
G01 X7.9744 Y38.2151
G01 X7.9593 Y38.2263
G01 X7.9468 Y38.2346
G01 X7.9308 Y38.2443
G01 X7.9175 Y38.2514
G01 X7.9006 Y38.2594
G01 X7.8866 Y38.2651
G01 X7.8690 Y38.2714
G01 X7.8546 Y38.2758
G01 X7.8365 Y38.2803
G01 X7.8236 Y38.2830
G01 X7.8032 Y38.2860
G01 X7.7882 Y38.2875
G01 X7.7620 Y38.2886
G01 X6.2305 Y38.2884
G01 X6.2118 Y38.2875
G01 X6.1968 Y38.2860
G01 X6.1783 Y38.2833
G01 X6.1635 Y38.2803
G01 X6.1454 Y38.2758
G01 X6.1310 Y38.2714
G01 X6.1134 Y38.2651
G01 X6.0994 Y38.2594
G01 X6.0825 Y38.2514
G01 X6.0692 Y38.2443
G01 X6.0532 Y38.2346
G01 X6.0417 Y38.2270
G01 X6.0256 Y38.2151
G01 X6.0142 Y38.2054
G01 X6.0140 Y38.2056
G01 X6.0001 Y38.1930
G01 X5.9895 Y38.1824
G01 X5.9769 Y38.1685
G01 X5.9674 Y38.1569
G01 X5.9562 Y38.1418
G01 X5.9479 Y38.1293
G01 X5.9382 Y38.1133
G01 X5.9311 Y38.1000
G01 X5.9231 Y38.0831
G01 X5.9174 Y38.0691
G01 X5.9111 Y38.0515
G01 X5.9067 Y38.0371
G01 X5.9022 Y38.0190
G01 X5.8996 Y38.0067
G01 X5.8965 Y37.9857
G01 X5.8950 Y37.9707
G01 X5.8939 Y37.9445
G01 X5.8939 Y37.2526
G01 X5.8154 Y37.1739
G01 X5.8089 Y37.1666
G01 X5.7993 Y37.1550
G01 X5.7934 Y37.1471
G01 X5.7851 Y37.1346
G01 X5.7800 Y37.1261
G01 X5.7729 Y37.1128
G01 X5.7687 Y37.1040
G01 X5.7629 Y37.0900
G01 X5.7596 Y37.0808
G01 X5.7553 Y37.0664
G01 X5.7529 Y37.0568
G01 X5.7503 Y37.0446
G01 X5.7485 Y37.0323
G01 X5.7470 Y37.0173
G01 X5.7463 Y37.0000
G01 X5.7463 Y18.6245
G01 X5.6724 Y18.6059
G01 X5.6580 Y18.6016
G01 X5.5656 Y18.5685
G01 X5.5516 Y18.5627
G01 X5.4629 Y18.5208
G01 X5.4496 Y18.5137
G01 X5.3655 Y18.4632
G01 X5.3540 Y18.4556
G01 X5.2741 Y18.3964
G01 X5.2627 Y18.3866
G01 X5.2625 Y18.3868
G01 X5.1897 Y18.3209
G01 X5.1791 Y18.3103
G01 X5.1132 Y18.2375
G01 X5.1036 Y18.2259
G01 X5.0452 Y18.1471
G01 X5.0368 Y18.1345
G01 X4.9863 Y18.0504
G01 X4.9792 Y18.0371
G01 X4.9373 Y17.9484
G01 X4.9315 Y17.9344
G01 X4.8984 Y17.8420
G01 X4.8941 Y17.8276
G01 X4.8702 Y17.7324
G01 X4.8673 Y17.7176
G01 X4.8529 Y17.6206
G01 X4.8516 Y17.6055
G00 Z2.0000
G00 X4.7751 Y17.6093
G01 F60.00
G01 Z-0.1000
G01 F120.00
G01 X4.7747 Y17.6093
G01 X4.7699 Y17.5113
G01 X4.7699 Y17.4887
G01 X4.7747 Y17.3907
G01 X4.7769 Y17.3682
G01 X4.7913 Y17.2711
G01 X4.7957 Y17.2489
G01 X4.8196 Y17.1537
G01 X4.8264 Y17.1322
G01 X4.8261 Y17.1321
G01 X4.8592 Y17.0397
G01 X4.8678 Y17.0188
G01 X4.9098 Y16.9301
G01 X4.9205 Y16.9102
G01 X4.9709 Y16.8260
G01 X4.9823 Y16.8087
G01 X5.0419 Y16.7284
G01 X5.0566 Y16.7112
G01 X5.0563 Y16.7109
G01 X5.1222 Y16.6382
G01 X5.1382 Y16.6222
G01 X5.2109 Y16.5563
G01 X5.2284 Y16.5419
G01 X5.3072 Y16.4835
G01 X5.3260 Y16.4709
G01 X5.4102 Y16.4205
G01 X5.4301 Y16.4098
G01 X5.5188 Y16.3678
G01 X5.5397 Y16.3592
G01 X5.6321 Y16.3261
G01 X5.6537 Y16.3196
G01 X5.7489 Y16.2957
G01 X5.7683 Y16.2917
G01 X5.8682 Y16.2769
G01 X5.8907 Y16.2751
G01 X5.8907 Y16.2747
G01 X5.9887 Y16.2699
G01 X6.0113 Y16.2699
G01 X6.1093 Y16.2747
G01 X6.1318 Y16.2769
G01 X6.2289 Y16.2913
G01 X6.2511 Y16.2957
G01 X6.3463 Y16.3196
G01 X6.3678 Y16.3264
G01 X6.3679 Y16.3261
G01 X6.4603 Y16.3592
G01 X6.4812 Y16.3678
G01 X6.5699 Y16.4098
G01 X6.5898 Y16.4205
G01 X6.6740 Y16.4709
G01 X6.6913 Y16.4823
G01 X6.7716 Y16.5419
G01 X6.7888 Y16.5566
G01 X6.7891 Y16.5563
G01 X6.8618 Y16.6222
G01 X6.8778 Y16.6382
G01 X6.9437 Y16.7109
G01 X6.9581 Y16.7284
G01 X7.0165 Y16.8072
G01 X7.0291 Y16.8260
G01 X7.0795 Y16.9102
G01 X7.0902 Y16.9301
G01 X7.1322 Y17.0188
G01 X7.1408 Y17.0397
G01 X7.1739 Y17.1321
G01 X7.1804 Y17.1537
G01 X7.2043 Y17.2489
G01 X7.2081 Y17.2674
G01 X7.2231 Y17.3682
G01 X7.2249 Y17.3907
G01 X7.2253 Y17.3907
G01 X7.2301 Y17.4887
G01 X7.2301 Y17.5113
G01 X7.2253 Y17.6093
G01 X7.2231 Y17.6318
G01 X7.2087 Y17.7289
G01 X7.2043 Y17.7511
G01 X7.1804 Y17.8463
G01 X7.1736 Y17.8678
G01 X7.1739 Y17.8679
G01 X7.1408 Y17.9603
G01 X7.1322 Y17.9812
G01 X7.0902 Y18.0699
G01 X7.0795 Y18.0898
G01 X7.0291 Y18.1740
G01 X7.0177 Y18.1913
G01 X6.9581 Y18.2716
G01 X6.9434 Y18.2888
G01 X6.9437 Y18.2891
G01 X6.8778 Y18.3618
G01 X6.8618 Y18.3778
G01 X6.7891 Y18.4437
G01 X6.7716 Y18.4581
G01 X6.6928 Y18.5165
G01 X6.6740 Y18.5291
G01 X6.5898 Y18.5795
G01 X6.5699 Y18.5902
G01 X6.4812 Y18.6322
G01 X6.4603 Y18.6408
G01 X6.3679 Y18.6739
G01 X6.3463 Y18.6804
G01 X6.3305 Y18.6844
G01 X6.3305 Y36.6346
G01 X7.7620 Y36.6346
G01 X7.7920 Y36.6358
G01 X7.8145 Y36.6380
G01 X7.8330 Y36.6408
G01 X7.8551 Y36.6452
G01 X7.8733 Y36.6497
G01 X7.8948 Y36.6565
G01 X7.8949 Y36.6563
G01 X7.9125 Y36.6626
G01 X7.9334 Y36.6712
G01 X7.9503 Y36.6792
G01 X7.9703 Y36.6899
G01 X7.9863 Y36.6995
G01 X8.0036 Y36.7109
G01 X8.0201 Y36.7232
G01 X8.0373 Y36.7379
G01 X8.0376 Y36.7375
G01 X8.0514 Y36.7501
G01 X8.0674 Y36.7661
G01 X8.0800 Y36.7799
G01 X8.0943 Y36.7974
G01 X8.1055 Y36.8124
G01 X8.1180 Y36.8312
G01 X8.1276 Y36.8472
G01 X8.1383 Y36.8672
G01 X8.1463 Y36.8841
G01 X8.1549 Y36.9050
G01 X8.1612 Y36.9226
G01 X8.1678 Y36.9442
G01 X8.1723 Y36.9624
G01 X8.1762 Y36.9808
G01 X8.1795 Y37.0030
G01 X8.1813 Y37.0255
G01 X8.1817 Y37.0255
G01 X8.1829 Y37.0555
G01 X8.1829 Y37.9445
G01 X8.1817 Y37.9745
G01 X8.1795 Y37.9970
G01 X8.1767 Y38.0155
G01 X8.1723 Y38.0376
G01 X8.1678 Y38.0558
G01 X8.1610 Y38.0773
G01 X8.1612 Y38.0774
G01 X8.1549 Y38.0950
G01 X8.1463 Y38.1159
G01 X8.1383 Y38.1328
G01 X8.1276 Y38.1528
G01 X8.1180 Y38.1688
G01 X8.1066 Y38.1861
G01 X8.0943 Y38.2026
G01 X8.0796 Y38.2198
G01 X8.0800 Y38.2201
G01 X8.0674 Y38.2339
G01 X8.0514 Y38.2499
G01 X8.0376 Y38.2625
G01 X8.0201 Y38.2768
G01 X8.0051 Y38.2880
G01 X7.9863 Y38.3005
G01 X7.9703 Y38.3101
G01 X7.9503 Y38.3208
G01 X7.9334 Y38.3288
G01 X7.9125 Y38.3374
G01 X7.8949 Y38.3437
G01 X7.8733 Y38.3503
G01 X7.8551 Y38.3548
G01 X7.8358 Y38.3588
G01 X7.8145 Y38.3620
G01 X7.7920 Y38.3638
G01 X7.7920 Y38.3642
G01 X7.7620 Y38.3654
G01 X6.2380 Y38.3654
G01 X6.2267 Y38.3651
G01 X6.2080 Y38.3642
G01 X6.1855 Y38.3620
G01 X6.1670 Y38.3592
G01 X6.1449 Y38.3548
G01 X6.1267 Y38.3503
G01 X6.1052 Y38.3435
G01 X6.1051 Y38.3437
G01 X6.0875 Y38.3374
G01 X6.0666 Y38.3288
G01 X6.0497 Y38.3208
G01 X6.0297 Y38.3101
G01 X6.0137 Y38.3005
G01 X5.9964 Y38.2891
G01 X5.9799 Y38.2768
G01 X5.9627 Y38.2621
G01 X5.9624 Y38.2625
G01 X5.9486 Y38.2499
G01 X5.9326 Y38.2339
G01 X5.9200 Y38.2201
G01 X5.9057 Y38.2026
G01 X5.8945 Y38.1876
G01 X5.8820 Y38.1688
G01 X5.8724 Y38.1528
G01 X5.8617 Y38.1328
G01 X5.8537 Y38.1159
G01 X5.8451 Y38.0950
G01 X5.8388 Y38.0774
G01 X5.8322 Y38.0558
G01 X5.8277 Y38.0376
G01 X5.8238 Y38.0192
G01 X5.8205 Y37.9970
G01 X5.8187 Y37.9745
G01 X5.8183 Y37.9745
G01 X5.8171 Y37.9445
G01 X5.8171 Y37.2844
G01 X5.7663 Y37.2337
G01 X5.7519 Y37.2182
G01 X5.7376 Y37.2007
G01 X5.7318 Y37.1928
G01 X5.7192 Y37.1740
G01 X5.7141 Y37.1656
G01 X5.7035 Y37.1457
G01 X5.6993 Y37.1368
G01 X5.6906 Y37.1159
G01 X5.6873 Y37.1067
G01 X5.6808 Y37.0850
G01 X5.6784 Y37.0755
G01 X5.6746 Y37.0571
G01 X5.6725 Y37.0436
G01 X5.6707 Y37.0211
G01 X5.6703 Y37.0211
G01 X5.6695 Y37.0000
G01 X5.6695 Y18.6844
G01 X5.6537 Y18.6804
G01 X5.6322 Y18.6736
G01 X5.6321 Y18.6739
G01 X5.5397 Y18.6408
G01 X5.5188 Y18.6322
G01 X5.4301 Y18.5902
G01 X5.4102 Y18.5795
G01 X5.3260 Y18.5291
G01 X5.3087 Y18.5177
G01 X5.2284 Y18.4581
G01 X5.2112 Y18.4434
G01 X5.2109 Y18.4437
G01 X5.1382 Y18.3778
G01 X5.1222 Y18.3618
G01 X5.0563 Y18.2891
G01 X5.0419 Y18.2716
G01 X4.9835 Y18.1928
G01 X4.9709 Y18.1740
G01 X4.9205 Y18.0898
G01 X4.9098 Y18.0699
G01 X4.8678 Y17.9812
G01 X4.8592 Y17.9603
G01 X4.8261 Y17.8679
G01 X4.8196 Y17.8463
G01 X4.7957 Y17.7511
G01 X4.7919 Y17.7326
G01 X4.7769 Y17.6318
G01 X4.7751 Y17.6093
G00 Z2.0000
G00 X4.7299 Y17.6000
G01 F60.00
G01 Z-0.1000
G01 F120.00
G01 X4.7299 Y17.4000
G01 X4.7612 Y17.2026
G01 X4.8230 Y17.0124
G01 X4.9137 Y16.8343
G01 X5.0312 Y16.6726
G01 X5.1726 Y16.5312
G01 X5.3343 Y16.4137
G01 X5.5124 Y16.3230
G01 X5.7026 Y16.2612
G01 X5.9000 Y16.2299
G01 X6.1000 Y16.2299
G01 X6.2974 Y16.2612
G01 X6.4875 Y16.3230
G01 X6.6657 Y16.4137
G01 X6.8274 Y16.5312
G01 X6.9688 Y16.6726
G01 X7.0863 Y16.8343
G01 X7.1770 Y17.0125
G01 X7.2388 Y17.2026
G01 X7.2701 Y17.4000
G01 X7.2701 Y17.6000
G01 X7.2388 Y17.7974
G01 X7.1770 Y17.9876
G01 X7.0863 Y18.1657
G01 X6.9688 Y18.3274
G01 X6.8274 Y18.4688
G01 X6.6657 Y18.5863
G01 X6.5636 Y18.6383
G01 X6.5461 Y18.6482
G01 X6.5294 Y18.6597
G01 X6.5100 Y18.6761
G01 X6.4592 Y18.7241
G01 X6.4415 Y18.7427
G01 X6.4261 Y18.7632
G01 X6.4129 Y18.7854
G01 X6.4027 Y18.8079
G01 X6.3950 Y18.8314
G01 X6.3781 Y18.8939
G01 X6.3737 Y18.9137
G01 X6.3710 Y18.9338
G01 X6.3701 Y18.9541
G01 X6.3701 Y36.2405
G01 X6.3711 Y36.2624
G01 X6.3743 Y36.2841
G01 X6.3794 Y36.3054
G01 X6.3991 Y36.3725
G01 X6.4063 Y36.3931
G01 X6.4153 Y36.4129
G01 X6.4262 Y36.4318
G01 X6.4389 Y36.4498
G01 X6.4534 Y36.4665
G01 X6.4693 Y36.4817
G01 X6.5221 Y36.5274
G01 X6.5372 Y36.5394
G01 X6.5532 Y36.5501
G01 X6.5728 Y36.5608
G01 X6.5979 Y36.5711
G01 X6.6240 Y36.5784
G01 X6.6755 Y36.5896
G01 X6.6999 Y36.5936
G01 X6.7245 Y36.5949
G01 X7.8074 Y36.5949
G01 X7.8423 Y36.5981
G01 X7.9524 Y36.6324
G01 X8.0481 Y36.6903
G01 X8.1272 Y36.7694
G01 X8.1851 Y36.8651
G01 X8.2194 Y36.9752
G01 X8.2226 Y37.0101
G01 X8.2226 Y37.9899
G01 X8.2194 Y38.0248
G01 X8.1851 Y38.1349
G01 X8.1272 Y38.2306
G01 X8.0481 Y38.3097
G01 X7.9524 Y38.3676
G01 X7.8423 Y38.4019
G01 X7.8074 Y38.4051
G01 X6.1926 Y38.4051
G01 X6.1577 Y38.4019
G01 X6.0476 Y38.3676
G01 X5.9519 Y38.3097
G01 X5.8728 Y38.2306
G01 X5.8149 Y38.1349
G01 X5.7806 Y38.0248
G01 X5.7774 Y37.9899
G01 X5.7774 Y37.4467
G01 X5.7765 Y37.4261
G01 X5.7737 Y37.4057
G01 X5.7730 Y37.4023
G01 X5.7729 Y37.3985
G01 X5.7695 Y37.3731
G01 X5.7634 Y37.3482
G01 X5.7575 Y37.3315
G01 X5.7469 Y37.3081
G01 X5.7422 Y37.2946
G01 X5.7277 Y37.2657
G01 X5.7211 Y37.2546
G01 X5.7096 Y37.2371
G01 X5.6551 Y37.1429
G01 X5.6299 Y37.0487
G01 X5.6299 Y18.9541
G01 X5.6289 Y18.9322
G01 X5.6257 Y18.9105
G01 X5.6206 Y18.8892
G01 X5.6009 Y18.8221
G01 X5.5923 Y18.7979
G01 X5.5810 Y18.7747
G01 X5.5672 Y18.7530
G01 X5.5518 Y18.7337
G01 X5.5344 Y18.7162
G01 X5.4864 Y18.6727
G01 X5.4698 Y18.6591
G01 X5.4535 Y18.6480
G01 X5.4364 Y18.6383
G01 X5.3343 Y18.5863
G01 X5.1726 Y18.4688
G01 X5.0312 Y18.3274
G01 X4.9137 Y18.1657
G01 X4.8230 Y17.9876
G01 X4.7612 Y17.7974
G01 X4.7299 Y17.6000
G00 Z2.0000
G00 X4.6531 Y17.6060
G01 F60.00
G01 Z-0.1000
G01 F120.00
G01 X4.6531 Y17.3940
G01 X4.6863 Y17.1846
G01 X4.7518 Y16.9830
G01 X4.8480 Y16.7941
G01 X4.9726 Y16.6226
G01 X5.1226 Y16.4726
G01 X5.2941 Y16.3480
G01 X5.4830 Y16.2518
G01 X5.6846 Y16.1863
G01 X5.8940 Y16.1531
G01 X6.1060 Y16.1531
G01 X6.3154 Y16.1863
G01 X6.5170 Y16.2518
G01 X6.7059 Y16.3480
G01 X6.8774 Y16.4726
G01 X7.0274 Y16.6226
G01 X7.1520 Y16.7941
G01 X7.2482 Y16.9830
G01 X7.3137 Y17.1846
G01 X7.3469 Y17.3940
G01 X7.3469 Y17.6060
G01 X7.3137 Y17.8154
G01 X7.2482 Y18.0170
G01 X7.1520 Y18.2059
G01 X7.0274 Y18.3774
G01 X6.8774 Y18.5274
G01 X6.7059 Y18.6520
G01 X6.5985 Y18.7067
G01 X6.5868 Y18.7133
G01 X6.5757 Y18.7210
G01 X6.5627 Y18.7319
G01 X6.5119 Y18.7799
G01 X6.5002 Y18.7923
G01 X6.4898 Y18.8060
G01 X6.4811 Y18.8208
G01 X6.4743 Y18.8358
G01 X6.4691 Y18.8515
G01 X6.4522 Y18.9140
G01 X6.4493 Y18.9272
G01 X6.4475 Y18.9406
G01 X6.4469 Y18.9541
G01 X6.4469 Y36.2405
G01 X6.4476 Y36.2551
G01 X6.4497 Y36.2696
G01 X6.4531 Y36.2838
G01 X6.4728 Y36.3508
G01 X6.4776 Y36.3646
G01 X6.4836 Y36.3778
G01 X6.4909 Y36.3904
G01 X6.4994 Y36.4024
G01 X6.5090 Y36.4135
G01 X6.5196 Y36.4236
G01 X6.5724 Y36.4694
G01 X6.5825 Y36.4774
G01 X6.5932 Y36.4845
G01 X6.6062 Y36.4916
G01 X6.6229 Y36.4985
G01 X6.6403 Y36.5034
G01 X6.6918 Y36.5146
G01 X6.7081 Y36.5172
G01 X6.7245 Y36.5181
G01 X7.8109 Y36.5181
G01 X7.8573 Y36.5223
G01 X7.9842 Y36.5618
G01 X8.0959 Y36.6294
G01 X8.1881 Y36.7216
G01 X8.2557 Y36.8333
G01 X8.2952 Y36.9602
G01 X8.2994 Y37.0066
G01 X8.2994 Y37.9934
G01 X8.2952 Y38.0398
G01 X8.2557 Y38.1667
G01 X8.1881 Y38.2784
G01 X8.0959 Y38.3706
G01 X7.9842 Y38.4382
G01 X7.8573 Y38.4777
G01 X7.8109 Y38.4819
G01 X6.1891 Y38.4819
G01 X6.1427 Y38.4777
G01 X6.0158 Y38.4382
G01 X5.9041 Y38.3706
G01 X5.8119 Y38.2784
G01 X5.7443 Y38.1667
G01 X5.7048 Y38.0398
G01 X5.7006 Y37.9934
G01 X5.7006 Y37.4467
G01 X5.7000 Y37.4330
G01 X5.6982 Y37.4194
G01 X5.6964 Y37.4119
G01 X5.6963 Y37.4043
G01 X5.6941 Y37.3874
G01 X5.6900 Y37.3708
G01 X5.6860 Y37.3596
G01 X5.6763 Y37.3387
G01 X5.6714 Y37.3242
G01 X5.6617 Y37.3049
G01 X5.6551 Y37.2938
G01 X5.6481 Y37.2831
G01 X5.6454 Y37.2797
G01 X5.5836 Y37.1725
G01 X5.5531 Y37.0588
G01 X5.5531 Y18.9541
G01 X5.5524 Y18.9395
G01 X5.5503 Y18.9250
G01 X5.5469 Y18.9108
G01 X5.5272 Y18.8438
G01 X5.5214 Y18.8276
G01 X5.5139 Y18.8122
G01 X5.5047 Y18.7977
G01 X5.4945 Y18.7848
G01 X5.4829 Y18.7731
G01 X5.4348 Y18.7297
G01 X5.4238 Y18.7206
G01 X5.4130 Y18.7132
G01 X5.4015 Y18.7067
G01 X5.2941 Y18.6520
G01 X5.1226 Y18.5274
G01 X4.9726 Y18.3775
G01 X4.8480 Y18.2059
G01 X4.7518 Y18.0170
G01 X4.6863 Y17.8154
G01 X4.6531 Y17.6060
G00 Z2.0000
G00 X4.5763 Y17.6121
G01 F60.00
G01 Z-0.1000
G01 F120.00
G01 X4.5763 Y17.3879
G01 X4.6114 Y17.1666
G01 X4.6806 Y16.9535
G01 X4.7823 Y16.7538
G01 X4.9141 Y16.5725
G01 X5.0725 Y16.4141
G01 X5.2538 Y16.2823
G01 X5.4535 Y16.1806
G01 X5.6666 Y16.1114
G01 X5.8879 Y16.0763
G01 X6.1121 Y16.0763
G01 X6.3334 Y16.1114
G01 X6.5465 Y16.1806
G01 X6.7462 Y16.2823
G01 X6.9275 Y16.4141
G01 X7.0859 Y16.5725
G01 X7.2177 Y16.7538
G01 X7.3194 Y16.9535
G01 X7.3886 Y17.1666
G01 X7.4237 Y17.3879
G01 X7.4237 Y17.6121
G01 X7.3886 Y17.8334
G01 X7.3194 Y18.0465
G01 X7.2177 Y18.2462
G01 X7.0859 Y18.4275
G01 X6.9275 Y18.5859
G01 X6.7462 Y18.7177
G01 X6.6333 Y18.7752
G01 X6.6275 Y18.7785
G01 X6.6220 Y18.7823
G01 X6.6155 Y18.7878
G01 X6.5647 Y18.8357
G01 X6.5588 Y18.8419
G01 X6.5536 Y18.8488
G01 X6.5493 Y18.8562
G01 X6.5459 Y18.8637
G01 X6.5433 Y18.8715
G01 X6.5264 Y18.9340
G01 X6.5249 Y18.9406
G01 X6.5240 Y18.9473
G01 X6.5237 Y18.9541
G01 X6.5237 Y36.2405
G01 X6.5240 Y36.2478
G01 X6.5251 Y36.2550
G01 X6.5268 Y36.2621
G01 X6.5465 Y36.3292
G01 X6.5489 Y36.3361
G01 X6.5519 Y36.3427
G01 X6.5555 Y36.3490
G01 X6.5598 Y36.3550
G01 X6.5646 Y36.3605
G01 X6.5699 Y36.3656
G01 X6.6227 Y36.4113
G01 X6.6277 Y36.4153
G01 X6.6331 Y36.4189
G01 X6.6387 Y36.4220
G01 X6.6480 Y36.4259
G01 X6.6567 Y36.4283
G01 X6.7082 Y36.4395
G01 X6.7163 Y36.4409
G01 X6.7245 Y36.4413
G01 X7.8144 Y36.4413
G01 X7.8724 Y36.4466
G01 X8.0159 Y36.4913
G01 X8.1436 Y36.5685
G01 X8.2490 Y36.6739
G01 X8.3262 Y36.8016
G01 X8.3709 Y36.9451
G01 X8.3762 Y37.0031
G01 X8.3762 Y37.9969
G01 X8.3709 Y38.0549
G01 X8.3262 Y38.1984
G01 X8.2490 Y38.3261
G01 X8.1436 Y38.4315
G01 X8.0159 Y38.5087
G01 X7.8724 Y38.5534
G01 X7.8144 Y38.5587
G01 X6.1856 Y38.5587
G01 X6.1276 Y38.5534
G01 X5.9841 Y38.5087
G01 X5.8564 Y38.4315
G01 X5.7510 Y38.3261
G01 X5.6738 Y38.1984
G01 X5.6291 Y38.0549
G01 X5.6238 Y37.9969
G01 X5.6238 Y37.4467
G01 X5.6235 Y37.4398
G01 X5.6226 Y37.4330
G01 X5.6198 Y37.4217
G01 X5.6197 Y37.4101
G01 X5.6186 Y37.4017
G01 X5.6165 Y37.3934
G01 X5.6146 Y37.3878
G01 X5.6048 Y37.3672
G01 X5.6005 Y37.3538
G01 X5.5957 Y37.3441
G01 X5.5856 Y37.3277
G01 X5.5814 Y37.3224
G01 X5.5120 Y37.2021
G01 X5.4763 Y37.0689
G01 X5.4763 Y18.9541
G01 X5.4760 Y18.9468
G01 X5.4749 Y18.9395
G01 X5.4732 Y18.9324
G01 X5.4535 Y18.8654
G01 X5.4506 Y18.8573
G01 X5.4469 Y18.8496
G01 X5.4423 Y18.8424
G01 X5.4371 Y18.8359
G01 X5.4313 Y18.8301
G01 X5.3833 Y18.7866
G01 X5.3778 Y18.7821
G01 X5.3724 Y18.7784
G01 X5.3667 Y18.7752
G01 X5.2538 Y18.7177
G01 X5.0725 Y18.5859
G01 X4.9141 Y18.4275
G01 X4.7823 Y18.2462
G01 X4.6806 Y18.0465
G01 X4.6114 Y17.8334
G01 X4.5763 Y17.6121
G00 Z2.0000
G00 X11.0763 Y17.6121
G01 F60.00
G01 Z-0.1000
G01 F120.00
G01 X11.0763 Y17.3879
G01 X11.1114 Y17.1666
G01 X11.1806 Y16.9535
G01 X11.2823 Y16.7538
G01 X11.4141 Y16.5725
G01 X11.5725 Y16.4141
G01 X11.7538 Y16.2823
G01 X11.9535 Y16.1806
G01 X12.1666 Y16.1114
G01 X12.3879 Y16.0763
G01 X12.6121 Y16.0763
G01 X12.8334 Y16.1114
G01 X13.0465 Y16.1806
G01 X13.2462 Y16.2823
G01 X13.4275 Y16.4141
G01 X13.5859 Y16.5725
G01 X13.7177 Y16.7538
G01 X13.8194 Y16.9535
G01 X13.8886 Y17.1666
G01 X13.9237 Y17.3879
G01 X13.9237 Y17.6121
G01 X13.8886 Y17.8334
G01 X13.8194 Y18.0465
G01 X13.7177 Y18.2462
G01 X13.5859 Y18.4275
G01 X13.4275 Y18.5859
G01 X13.2462 Y18.7177
G01 X13.0465 Y18.8194
G01 X12.8334 Y18.8886
G01 X12.6121 Y18.9237
G01 X12.3879 Y18.9237
G01 X12.1666 Y18.8886
G01 X11.9535 Y18.8194
G01 X11.7538 Y18.7177
G01 X11.5725 Y18.5859
G01 X11.4141 Y18.4275
G01 X11.3580 Y18.3503
G01 X11.2823 Y18.2462
G01 X11.1806 Y18.0465
G01 X11.1114 Y17.8334
G01 X11.0763 Y17.6121
G00 Z2.0000
G00 X11.1531 Y17.6060
G01 F60.00
G01 Z-0.1000
G01 F120.00
G01 X11.1531 Y17.3940
G01 X11.1863 Y17.1846
G01 X11.2518 Y16.9830
G01 X11.3480 Y16.7941
G01 X11.4726 Y16.6226
G01 X11.6226 Y16.4726
G01 X11.7941 Y16.3480
G01 X11.9830 Y16.2518
G01 X12.1846 Y16.1863
G01 X12.3940 Y16.1531
G01 X12.6060 Y16.1531
G01 X12.8154 Y16.1863
G01 X13.0170 Y16.2518
G01 X13.2059 Y16.3480
G01 X13.3774 Y16.4726
G01 X13.5274 Y16.6226
G01 X13.6520 Y16.7941
G01 X13.7482 Y16.9830
G01 X13.8137 Y17.1846
G01 X13.8469 Y17.3940
G01 X13.8469 Y17.6060
G01 X13.8137 Y17.8154
G01 X13.7482 Y18.0170
G01 X13.6520 Y18.2059
G01 X13.5274 Y18.3774
G01 X13.3774 Y18.5274
G01 X13.2059 Y18.6520
G01 X13.0170 Y18.7482
G01 X12.8154 Y18.8137
G01 X12.6060 Y18.8469
G01 X12.3940 Y18.8469
G01 X12.1846 Y18.8137
G01 X11.9830 Y18.7482
G01 X11.7941 Y18.6520
G01 X11.6226 Y18.5274
G01 X11.4726 Y18.3775
G01 X11.4201 Y18.3052
G01 X11.3480 Y18.2059
G01 X11.2518 Y18.0170
G01 X11.1863 Y17.8154
G01 X11.1531 Y17.6060
G00 Z2.0000
G00 X11.2299 Y17.6000
G01 F60.00
G01 Z-0.1000
G01 F120.00
G01 X11.2299 Y17.4000
G01 X11.2612 Y17.2026
G01 X11.3230 Y17.0124
G01 X11.4137 Y16.8343
G01 X11.5312 Y16.6726
G01 X11.6726 Y16.5312
G01 X11.8343 Y16.4137
G01 X12.0124 Y16.3230
G01 X12.2026 Y16.2612
G01 X12.4000 Y16.2299
G01 X12.6000 Y16.2299
G01 X12.7974 Y16.2612
G01 X12.9875 Y16.3230
G01 X13.1657 Y16.4137
G01 X13.3274 Y16.5312
G01 X13.4688 Y16.6726
G01 X13.5863 Y16.8343
G01 X13.6770 Y17.0125
G01 X13.7388 Y17.2026
G01 X13.7701 Y17.4000
G01 X13.7701 Y17.6000
G01 X13.7388 Y17.7974
G01 X13.6770 Y17.9876
G01 X13.5863 Y18.1657
G01 X13.4688 Y18.3274
G01 X13.3274 Y18.4688
G01 X13.1657 Y18.5863
G01 X12.9876 Y18.6770
G01 X12.7974 Y18.7388
G01 X12.6000 Y18.7701
G01 X12.4000 Y18.7701
G01 X12.2026 Y18.7388
G01 X12.0124 Y18.6770
G01 X11.8343 Y18.5863
G01 X11.6726 Y18.4688
G01 X11.5312 Y18.3274
G01 X11.4823 Y18.2600
G01 X11.4137 Y18.1657
G01 X11.3230 Y17.9876
G01 X11.2612 Y17.7974
G01 X11.2299 Y17.6000
G00 Z2.0000
G00 X11.2751 Y17.6093
G01 F60.00
G01 Z-0.1000
G01 F120.00
G01 X11.2747 Y17.6093
G01 X11.2699 Y17.5113
G01 X11.2699 Y17.4887
G01 X11.2747 Y17.3907
G01 X11.2769 Y17.3682
G01 X11.2913 Y17.2711
G01 X11.2957 Y17.2489
G01 X11.3196 Y17.1537
G01 X11.3264 Y17.1322
G01 X11.3261 Y17.1321
G01 X11.3592 Y17.0397
G01 X11.3678 Y17.0188
G01 X11.4098 Y16.9301
G01 X11.4205 Y16.9102
G01 X11.4709 Y16.8260
G01 X11.4823 Y16.8087
G01 X11.5419 Y16.7284
G01 X11.5566 Y16.7112
G01 X11.5563 Y16.7109
G01 X11.6222 Y16.6382
G01 X11.6382 Y16.6222
G01 X11.7109 Y16.5563
G01 X11.7284 Y16.5419
G01 X11.8072 Y16.4835
G01 X11.8260 Y16.4709
G01 X11.9102 Y16.4205
G01 X11.9301 Y16.4098
G01 X12.0188 Y16.3678
G01 X12.0397 Y16.3592
G01 X12.1321 Y16.3261
G01 X12.1537 Y16.3196
G01 X12.2489 Y16.2957
G01 X12.2683 Y16.2917
G01 X12.3682 Y16.2769
G01 X12.3907 Y16.2751
G01 X12.3907 Y16.2747
G01 X12.4887 Y16.2699
G01 X12.5113 Y16.2699
G01 X12.6093 Y16.2747
G01 X12.6318 Y16.2769
G01 X12.7289 Y16.2913
G01 X12.7511 Y16.2957
G01 X12.8463 Y16.3196
G01 X12.8678 Y16.3264
G01 X12.8679 Y16.3261
G01 X12.9603 Y16.3592
G01 X12.9812 Y16.3678
G01 X13.0699 Y16.4098
G01 X13.0898 Y16.4205
G01 X13.1740 Y16.4709
G01 X13.1913 Y16.4823
G01 X13.2716 Y16.5419
G01 X13.2888 Y16.5566
G01 X13.2891 Y16.5563
G01 X13.3618 Y16.6222
G01 X13.3778 Y16.6382
G01 X13.4437 Y16.7109
G01 X13.4581 Y16.7284
G01 X13.5165 Y16.8072
G01 X13.5291 Y16.8260
G01 X13.5795 Y16.9102
G01 X13.5902 Y16.9301
G01 X13.6322 Y17.0188
G01 X13.6408 Y17.0397
G01 X13.6739 Y17.1321
G01 X13.6804 Y17.1537
G01 X13.7043 Y17.2489
G01 X13.7081 Y17.2674
G01 X13.7231 Y17.3682
G01 X13.7249 Y17.3907
G01 X13.7253 Y17.3907
G01 X13.7301 Y17.4887
G01 X13.7301 Y17.5113
G01 X13.7253 Y17.6093
G01 X13.7231 Y17.6318
G01 X13.7087 Y17.7289
G01 X13.7043 Y17.7511
G01 X13.6804 Y17.8463
G01 X13.6736 Y17.8678
G01 X13.6739 Y17.8679
G01 X13.6408 Y17.9603
G01 X13.6322 Y17.9812
G01 X13.5902 Y18.0699
G01 X13.5795 Y18.0898
G01 X13.5291 Y18.1740
G01 X13.5177 Y18.1913
G01 X13.4581 Y18.2716
G01 X13.4434 Y18.2888
G01 X13.4437 Y18.2891
G01 X13.3778 Y18.3618
G01 X13.3618 Y18.3778
G01 X13.2891 Y18.4437
G01 X13.2716 Y18.4581
G01 X13.1928 Y18.5165
G01 X13.1740 Y18.5291
G01 X13.0898 Y18.5795
G01 X13.0699 Y18.5902
G01 X12.9812 Y18.6322
G01 X12.9603 Y18.6408
G01 X12.8679 Y18.6739
G01 X12.8463 Y18.6804
G01 X12.7511 Y18.7043
G01 X12.7317 Y18.7083
G01 X12.6318 Y18.7231
G01 X12.6093 Y18.7249
G01 X12.6093 Y18.7253
G01 X12.5113 Y18.7301
G01 X12.4887 Y18.7301
G01 X12.3907 Y18.7253
G01 X12.3682 Y18.7231
G01 X12.2711 Y18.7087
G01 X12.2489 Y18.7043
G01 X12.1537 Y18.6804
G01 X12.1322 Y18.6736
G01 X12.1321 Y18.6739
G01 X12.0397 Y18.6408
G01 X12.0188 Y18.6322
G01 X11.9301 Y18.5902
G01 X11.9102 Y18.5795
G01 X11.8260 Y18.5291
G01 X11.8087 Y18.5177
G01 X11.7284 Y18.4581
G01 X11.7112 Y18.4434
G01 X11.7109 Y18.4437
G01 X11.6382 Y18.3778
G01 X11.6222 Y18.3618
G01 X11.5563 Y18.2891
G01 X11.5419 Y18.2716
G01 X11.4835 Y18.1928
G01 X11.4709 Y18.1740
G01 X11.4205 Y18.0898
G01 X11.4098 Y18.0699
G01 X11.3678 Y17.9812
G01 X11.3592 Y17.9603
G01 X11.3261 Y17.8679
G01 X11.3196 Y17.8463
G01 X11.2957 Y17.7511
G01 X11.2919 Y17.7326
G01 X11.2769 Y17.6318
G01 X11.2751 Y17.6093
G00 Z2.0000
G00 X11.3516 Y17.6055
G01 F60.00
G01 Z-0.1000
G01 F120.00
G01 X11.3466 Y17.5075
G01 X11.3466 Y17.4925
G01 X11.3514 Y17.3944
G01 X11.3529 Y17.3794
G01 X11.3673 Y17.2824
G01 X11.3702 Y17.2676
G01 X11.3941 Y17.1724
G01 X11.3984 Y17.1580
G01 X11.4315 Y17.0656
G01 X11.4373 Y17.0516
G01 X11.4792 Y16.9629
G01 X11.4863 Y16.9496
G01 X11.5368 Y16.8655
G01 X11.5444 Y16.8540
G01 X11.6036 Y16.7741
G01 X11.6134 Y16.7627
G01 X11.6132 Y16.7625
G01 X11.6791 Y16.6897
G01 X11.6897 Y16.6791
G01 X11.7625 Y16.6132
G01 X11.7741 Y16.6036
G01 X11.8529 Y16.5452
G01 X11.8655 Y16.5368
G01 X11.9496 Y16.4863
G01 X11.9629 Y16.4792
G01 X12.0516 Y16.4373
G01 X12.0656 Y16.4315
G01 X12.1580 Y16.3984
G01 X12.1724 Y16.3941
G01 X12.2676 Y16.3702
G01 X12.2805 Y16.3676
G01 X12.3794 Y16.3529
G01 X12.3944 Y16.3514
G01 X12.4925 Y16.3466
G01 X12.5075 Y16.3466
G01 X12.6056 Y16.3514
G01 X12.6206 Y16.3529
G01 X12.7176 Y16.3673
G01 X12.7324 Y16.3702
G01 X12.8276 Y16.3941
G01 X12.8420 Y16.3984
G01 X12.9344 Y16.4315
G01 X12.9484 Y16.4373
G01 X13.0371 Y16.4792
G01 X13.0504 Y16.4863
G01 X13.1345 Y16.5368
G01 X13.1460 Y16.5444
G01 X13.2259 Y16.6036
G01 X13.2373 Y16.6134
G01 X13.2375 Y16.6132
G01 X13.3103 Y16.6791
G01 X13.3209 Y16.6897
G01 X13.3868 Y16.7625
G01 X13.3964 Y16.7741
G01 X13.4548 Y16.8529
G01 X13.4632 Y16.8655
G01 X13.5137 Y16.9496
G01 X13.5208 Y16.9629
G01 X13.5627 Y17.0516
G01 X13.5685 Y17.0656
G01 X13.6016 Y17.1580
G01 X13.6059 Y17.1724
G01 X13.6298 Y17.2676
G01 X13.6323 Y17.2799
G01 X13.6471 Y17.3794
G01 X13.6486 Y17.3944
G01 X13.6534 Y17.4925
G01 X13.6534 Y17.5075
G01 X13.6486 Y17.6056
G01 X13.6471 Y17.6206
G01 X13.6327 Y17.7176
G01 X13.6298 Y17.7324
G01 X13.6059 Y17.8276
G01 X13.6016 Y17.8420
G01 X13.5685 Y17.9344
G01 X13.5627 Y17.9484
G01 X13.5208 Y18.0371
G01 X13.5137 Y18.0504
G01 X13.4632 Y18.1345
G01 X13.4556 Y18.1460
G01 X13.3964 Y18.2259
G01 X13.3866 Y18.2373
G01 X13.3868 Y18.2375
G01 X13.3209 Y18.3103
G01 X13.3103 Y18.3209
G01 X13.2375 Y18.3868
G01 X13.2259 Y18.3964
G01 X13.1471 Y18.4548
G01 X13.1345 Y18.4632
G01 X13.0504 Y18.5137
G01 X13.0371 Y18.5208
G01 X12.9484 Y18.5627
G01 X12.9344 Y18.5685
G01 X12.8420 Y18.6016
G01 X12.8276 Y18.6059
G01 X12.7324 Y18.6298
G01 X12.7195 Y18.6324
G01 X12.6206 Y18.6471
G01 X12.6056 Y18.6486
G01 X12.5075 Y18.6534
G01 X12.4925 Y18.6534
G01 X12.3944 Y18.6486
G01 X12.3794 Y18.6471
G01 X12.2824 Y18.6327
G01 X12.2676 Y18.6298
G01 X12.1724 Y18.6059
G01 X12.1580 Y18.6016
G01 X12.0656 Y18.5685
G01 X12.0516 Y18.5627
G01 X11.9629 Y18.5208
G01 X11.9496 Y18.5137
G01 X11.8655 Y18.4632
G01 X11.8540 Y18.4556
G01 X11.7741 Y18.3964
G01 X11.7627 Y18.3866
G01 X11.7625 Y18.3868
G01 X11.6897 Y18.3209
G01 X11.6791 Y18.3103
G01 X11.6132 Y18.2375
G01 X11.6036 Y18.2259
G01 X11.5452 Y18.1471
G01 X11.5368 Y18.1345
G01 X11.4863 Y18.0504
G01 X11.4792 Y18.0371
G01 X11.4373 Y17.9484
G01 X11.4315 Y17.9344
G01 X11.3984 Y17.8420
G01 X11.3941 Y17.8276
G01 X11.3702 Y17.7324
G01 X11.3677 Y17.7201
G01 X11.3529 Y17.6206
G01 X11.3516 Y17.6055
G00 Z2.0000
G00 X11.4282 Y17.6018
G01 F60.00
G01 Z-0.1000
G01 F120.00
G01 X11.4233 Y17.5038
G01 X11.4233 Y17.4962
G01 X11.4281 Y17.3982
G01 X11.4288 Y17.3907
G01 X11.4432 Y17.2936
G01 X11.4447 Y17.2862
G01 X11.4686 Y17.1911
G01 X11.4707 Y17.1838
G01 X11.5038 Y17.0914
G01 X11.5067 Y17.0845
G01 X11.5487 Y16.9958
G01 X11.5522 Y16.9891
G01 X11.6027 Y16.9049
G01 X11.6065 Y16.8992
G01 X11.6653 Y16.8199
G01 X11.6701 Y16.8140
G01 X11.7360 Y16.7413
G01 X11.7413 Y16.7360
G01 X11.8140 Y16.6701
G01 X11.8199 Y16.6653
G01 X11.8987 Y16.6068
G01 X11.9049 Y16.6027
G01 X11.9891 Y16.5522
G01 X11.9958 Y16.5487
G01 X12.0845 Y16.5067
G01 X12.0914 Y16.5038
G01 X12.1838 Y16.4707
G01 X12.1911 Y16.4686
G01 X12.2862 Y16.4447
G01 X12.2927 Y16.4434
G01 X12.3907 Y16.4288
G01 X12.3982 Y16.4281
G01 X12.4962 Y16.4233
G01 X12.5038 Y16.4233
G01 X12.6018 Y16.4281
G01 X12.6093 Y16.4288
G01 X12.7064 Y16.4432
G01 X12.7138 Y16.4447
G01 X12.8089 Y16.4686
G01 X12.8162 Y16.4707
G01 X12.9086 Y16.5038
G01 X12.9155 Y16.5067
G01 X13.0042 Y16.5487
G01 X13.0109 Y16.5522
G01 X13.0951 Y16.6027
G01 X13.1008 Y16.6065
G01 X13.1801 Y16.6653
G01 X13.1860 Y16.6701
G01 X13.2587 Y16.7360
G01 X13.2640 Y16.7413
G01 X13.3299 Y16.8140
G01 X13.3347 Y16.8199
G01 X13.3932 Y16.8987
G01 X13.3973 Y16.9049
G01 X13.4478 Y16.9891
G01 X13.4513 Y16.9958
G01 X13.4933 Y17.0845
G01 X13.4962 Y17.0914
G01 X13.5293 Y17.1838
G01 X13.5314 Y17.1911
G01 X13.5566 Y17.2924
G01 X13.5712 Y17.3907
G01 X13.5719 Y17.3982
G01 X13.5767 Y17.4962
G01 X13.5767 Y17.5038
G01 X13.5719 Y17.6018
G01 X13.5712 Y17.6093
G01 X13.5568 Y17.7064
G01 X13.5553 Y17.7138
G01 X13.5314 Y17.8089
G01 X13.5293 Y17.8162
G01 X13.4962 Y17.9086
G01 X13.4933 Y17.9155
G01 X13.4513 Y18.0042
G01 X13.4478 Y18.0109
G01 X13.3973 Y18.0951
G01 X13.3935 Y18.1008
G01 X13.3347 Y18.1801
G01 X13.3299 Y18.1860
G01 X13.2640 Y18.2587
G01 X13.2587 Y18.2640
G01 X13.1860 Y18.3299
G01 X13.1801 Y18.3347
G01 X13.1013 Y18.3932
G01 X13.0951 Y18.3973
G01 X13.0109 Y18.4478
G01 X13.0042 Y18.4513
G01 X12.9155 Y18.4933
G01 X12.9086 Y18.4962
G01 X12.8162 Y18.5293
G01 X12.8089 Y18.5314
G01 X12.7138 Y18.5553
G01 X12.7073 Y18.5566
G01 X12.6093 Y18.5712
G01 X12.6018 Y18.5719
G01 X12.5038 Y18.5767
G01 X12.4962 Y18.5767
G01 X12.3982 Y18.5719
G01 X12.3907 Y18.5712
G01 X12.2936 Y18.5568
G01 X12.2862 Y18.5553
G01 X12.1911 Y18.5314
G01 X12.1838 Y18.5293
G01 X12.0914 Y18.4962
G01 X12.0845 Y18.4933
G01 X11.9958 Y18.4513
G01 X11.9891 Y18.4478
G01 X11.9049 Y18.3973
G01 X11.8992 Y18.3935
G01 X11.8199 Y18.3347
G01 X11.8140 Y18.3299
G01 X11.7413 Y18.2640
G01 X11.7360 Y18.2587
G01 X11.6701 Y18.1860
G01 X11.6653 Y18.1801
G01 X11.6068 Y18.1013
G01 X11.6027 Y18.0951
G01 X11.5522 Y18.0109
G01 X11.5487 Y18.0042
G01 X11.5067 Y17.9155
G01 X11.5038 Y17.9086
G01 X11.4707 Y17.8162
G01 X11.4686 Y17.8089
G01 X11.4434 Y17.7076
G01 X11.4288 Y17.6093
G01 X11.4282 Y17.6018
G00 Z2.0000
G00 X11.2751 Y13.1093
G01 F60.00
G01 Z-0.1000
G01 F120.00
G01 X11.2747 Y13.1093
G01 X11.2699 Y13.0113
G01 X11.2699 Y12.9887
G01 X11.2747 Y12.8907
G01 X11.2769 Y12.8682
G01 X11.2917 Y12.7683
G01 X11.2957 Y12.7489
G01 X11.3196 Y12.6537
G01 X11.3264 Y12.6322
G01 X11.3261 Y12.6321
G01 X11.3592 Y12.5397
G01 X11.3678 Y12.5188
G01 X11.4098 Y12.4301
G01 X11.4205 Y12.4102
G01 X11.4709 Y12.3260
G01 X11.4823 Y12.3087
G01 X11.5419 Y12.2284
G01 X11.5566 Y12.2112
G01 X11.5563 Y12.2109
G01 X11.6222 Y12.1382
G01 X11.6382 Y12.1222
G01 X11.7109 Y12.0563
G01 X11.7284 Y12.0419
G01 X11.8072 Y11.9835
G01 X11.8260 Y11.9709
G01 X11.9102 Y11.9205
G01 X11.9301 Y11.9098
G01 X12.0188 Y11.8678
G01 X12.0397 Y11.8592
G01 X12.1321 Y11.8261
G01 X12.1537 Y11.8196
G01 X12.2489 Y11.7957
G01 X12.2683 Y11.7917
G01 X12.3682 Y11.7769
G01 X12.3907 Y11.7751
G01 X12.3907 Y11.7747
G01 X12.4887 Y11.7699
G01 X12.5113 Y11.7699
G01 X12.6093 Y11.7747
G01 X12.6318 Y11.7769
G01 X12.7289 Y11.7913
G01 X12.7511 Y11.7957
G01 X12.8463 Y11.8196
G01 X12.8678 Y11.8264
G01 X12.8679 Y11.8261
G01 X12.9603 Y11.8592
G01 X12.9812 Y11.8678
G01 X13.0699 Y11.9098
G01 X13.0898 Y11.9205
G01 X13.1740 Y11.9709
G01 X13.1913 Y11.9823
G01 X13.2716 Y12.0419
G01 X13.2888 Y12.0566
G01 X13.2891 Y12.0563
G01 X13.3618 Y12.1222
G01 X13.3778 Y12.1382
G01 X13.4437 Y12.2109
G01 X13.4581 Y12.2284
G01 X13.5165 Y12.3072
G01 X13.5291 Y12.3260
G01 X13.5795 Y12.4102
G01 X13.5902 Y12.4301
G01 X13.6322 Y12.5188
G01 X13.6408 Y12.5397
G01 X13.6739 Y12.6321
G01 X13.6804 Y12.6537
G01 X13.6844 Y12.6695
G01 X20.4997 Y12.6695
G01 X20.5182 Y12.5957
G01 X20.5250 Y12.5741
G01 X20.5247 Y12.5740
G01 X20.5644 Y12.4632
G01 X20.5731 Y12.4423
G01 X20.6234 Y12.3358
G01 X20.6341 Y12.3159
G01 X20.6946 Y12.2149
G01 X20.7061 Y12.1976
G01 X20.7773 Y12.1015
G01 X20.7920 Y12.0843
G01 X20.7917 Y12.0840
G01 X20.8708 Y11.9967
G01 X20.8867 Y11.9808
G01 X20.9740 Y11.9017
G01 X20.9915 Y11.8873
G01 X21.0861 Y11.8172
G01 X21.1049 Y11.8046
G01 X21.2059 Y11.7441
G01 X21.2258 Y11.7334
G01 X21.3323 Y11.6831
G01 X21.3532 Y11.6744
G01 X21.4640 Y11.6347
G01 X21.4857 Y11.6282
G01 X21.5999 Y11.5996
G01 X21.6193 Y11.5956
G01 X21.7386 Y11.5779
G01 X21.7611 Y11.5760
G01 X21.7611 Y11.5757
G01 X21.8787 Y11.5699
G01 X21.9013 Y11.5699
G01 X22.0189 Y11.5757
G01 X22.0414 Y11.5779
G01 X22.1579 Y11.5952
G01 X22.1801 Y11.5996
G01 X22.2943 Y11.6282
G01 X22.3159 Y11.6350
G01 X22.3160 Y11.6347
G01 X22.4268 Y11.6744
G01 X22.4477 Y11.6831
G01 X22.5542 Y11.7334
G01 X22.5741 Y11.7441
G01 X22.6751 Y11.8046
G01 X22.6924 Y11.8161
G01 X22.7885 Y11.8873
G01 X22.8057 Y11.9020
G01 X22.8060 Y11.9017
G01 X22.8933 Y11.9808
G01 X22.9092 Y11.9967
G01 X22.9883 Y12.0840
G01 X23.0027 Y12.1015
G01 X23.0728 Y12.1961
G01 X23.0854 Y12.2149
G01 X23.1459 Y12.3159
G01 X23.1566 Y12.3358
G01 X23.2069 Y12.4423
G01 X23.2156 Y12.4632
G01 X23.2553 Y12.5740
G01 X23.2618 Y12.5957
G01 X23.2904 Y12.7099
G01 X23.2944 Y12.7293
G01 X23.3121 Y12.8486
G01 X23.3140 Y12.8711
G01 X23.3143 Y12.8711
G01 X23.3201 Y12.9887
G01 X23.3201 Y13.0113
G01 X23.3143 Y13.1289
G01 X23.3121 Y13.1514
G01 X23.2948 Y13.2679
G01 X23.2904 Y13.2901
G01 X23.2618 Y13.4043
G01 X23.2550 Y13.4259
G01 X23.2553 Y13.4260
G01 X23.2156 Y13.5368
G01 X23.2069 Y13.5577
G01 X23.1566 Y13.6642
G01 X23.1459 Y13.6841
G01 X23.0854 Y13.7851
G01 X23.0739 Y13.8024
G01 X23.0027 Y13.8985
G01 X22.9880 Y13.9157
G01 X22.9883 Y13.9160
G01 X22.9092 Y14.0033
G01 X22.8933 Y14.0192
G01 X22.8060 Y14.0983
G01 X22.7885 Y14.1127
G01 X22.6939 Y14.1828
G01 X22.6751 Y14.1954
G01 X22.5741 Y14.2559
G01 X22.5542 Y14.2666
G01 X22.4477 Y14.3169
G01 X22.4268 Y14.3256
G01 X22.3160 Y14.3653
G01 X22.2943 Y14.3718
G01 X22.1801 Y14.4004
G01 X22.1607 Y14.4044
G01 X22.0414 Y14.4221
G01 X22.0189 Y14.4240
G01 X22.0189 Y14.4243
G01 X21.9013 Y14.4301
G01 X21.8787 Y14.4301
G01 X21.7611 Y14.4243
G01 X21.7386 Y14.4221
G01 X21.6221 Y14.4048
G01 X21.5999 Y14.4004
G01 X21.4857 Y14.3718
G01 X21.4641 Y14.3650
G01 X21.4640 Y14.3653
G01 X21.3532 Y14.3256
G01 X21.3323 Y14.3169
G01 X21.2258 Y14.2666
G01 X21.2059 Y14.2559
G01 X21.1049 Y14.1954
G01 X21.0876 Y14.1839
G01 X20.9915 Y14.1127
G01 X20.9743 Y14.0980
G01 X20.9740 Y14.0983
G01 X20.8867 Y14.0192
G01 X20.8708 Y14.0033
G01 X20.7917 Y13.9160
G01 X20.7773 Y13.8985
G01 X20.7072 Y13.8039
G01 X20.6946 Y13.7851
G01 X20.6341 Y13.6841
G01 X20.6234 Y13.6642
G01 X20.5731 Y13.5577
G01 X20.5644 Y13.5368
G01 X20.5247 Y13.4260
G01 X20.5182 Y13.4043
G01 X20.4997 Y13.3305
G01 X13.6844 Y13.3305
G01 X13.6804 Y13.3463
G01 X13.6736 Y13.3678
G01 X13.6739 Y13.3679
G01 X13.6408 Y13.4603
G01 X13.6322 Y13.4812
G01 X13.5902 Y13.5699
G01 X13.5795 Y13.5898
G01 X13.5291 Y13.6740
G01 X13.5177 Y13.6913
G01 X13.4581 Y13.7716
G01 X13.4434 Y13.7888
G01 X13.4437 Y13.7891
G01 X13.3778 Y13.8618
G01 X13.3618 Y13.8778
G01 X13.2891 Y13.9437
G01 X13.2716 Y13.9581
G01 X13.1928 Y14.0165
G01 X13.1740 Y14.0291
G01 X13.0898 Y14.0795
G01 X13.0699 Y14.0902
G01 X12.9812 Y14.1322
G01 X12.9603 Y14.1408
G01 X12.8679 Y14.1739
G01 X12.8463 Y14.1804
G01 X12.7511 Y14.2043
G01 X12.7317 Y14.2083
G01 X12.6318 Y14.2231
G01 X12.6093 Y14.2249
G01 X12.6093 Y14.2253
G01 X12.5113 Y14.2301
G01 X12.4887 Y14.2301
G01 X12.3907 Y14.2253
G01 X12.3682 Y14.2231
G01 X12.2711 Y14.2087
G01 X12.2489 Y14.2043
G01 X12.1537 Y14.1804
G01 X12.1322 Y14.1736
G01 X12.1321 Y14.1739
G01 X12.0397 Y14.1408
G01 X12.0188 Y14.1322
G01 X11.9301 Y14.0902
G01 X11.9102 Y14.0795
G01 X11.8260 Y14.0291
G01 X11.8087 Y14.0177
G01 X11.7284 Y13.9581
G01 X11.7112 Y13.9434
G01 X11.7109 Y13.9437
G01 X11.6382 Y13.8778
G01 X11.6222 Y13.8618
G01 X11.5563 Y13.7891
G01 X11.5419 Y13.7716
G01 X11.4835 Y13.6928
G01 X11.4709 Y13.6740
G01 X11.4205 Y13.5898
G01 X11.4098 Y13.5699
G01 X11.3678 Y13.4812
G01 X11.3592 Y13.4603
G01 X11.3261 Y13.3679
G01 X11.3196 Y13.3463
G01 X11.2957 Y13.2511
G01 X11.2919 Y13.2326
G01 X11.2769 Y13.1318
G01 X11.2751 Y13.1093
G00 Z2.0000
G00 X11.2299 Y13.1000
G01 F60.00
G01 Z-0.1000
G01 F120.00
G01 X11.2299 Y12.9000
G01 X11.2612 Y12.7026
G01 X11.3230 Y12.5124
G01 X11.4137 Y12.3343
G01 X11.5312 Y12.1726
G01 X11.6726 Y12.0312
G01 X11.8343 Y11.9137
G01 X12.0124 Y11.8230
G01 X12.2026 Y11.7612
G01 X12.4000 Y11.7299
G01 X12.6000 Y11.7299
G01 X12.7974 Y11.7612
G01 X12.9875 Y11.8230
G01 X13.1657 Y11.9137
G01 X13.3274 Y12.0312
G01 X13.4688 Y12.1726
G01 X13.5863 Y12.3343
G01 X13.6383 Y12.4364
G01 X13.6482 Y12.4539
G01 X13.6597 Y12.4706
G01 X13.6761 Y12.4900
G01 X13.7241 Y12.5408
G01 X13.7427 Y12.5585
G01 X13.7632 Y12.5739
G01 X13.7853 Y12.5871
G01 X13.8079 Y12.5973
G01 X13.8314 Y12.6050
G01 X13.8939 Y12.6219
G01 X13.9137 Y12.6263
G01 X13.9338 Y12.6290
G01 X13.9541 Y12.6299
G01 X20.2153 Y12.6299
G01 X20.2372 Y12.6289
G01 X20.2589 Y12.6257
G01 X20.2802 Y12.6206
G01 X20.3472 Y12.6009
G01 X20.3678 Y12.5937
G01 X20.3877 Y12.5847
G01 X20.4066 Y12.5738
G01 X20.4246 Y12.5611
G01 X20.4412 Y12.5466
G01 X20.4564 Y12.5307
G01 X20.5022 Y12.4779
G01 X20.5142 Y12.4628
G01 X20.5249 Y12.4468
G01 X20.5342 Y12.4300
G01 X20.5393 Y12.4190
G01 X20.5687 Y12.3484
G01 X20.6650 Y12.1815
G01 X20.7823 Y12.0286
G01 X20.9186 Y11.8924
G01 X21.0715 Y11.7750
G01 X21.2384 Y11.6787
G01 X21.4164 Y11.6049
G01 X21.6026 Y11.5551
G01 X21.7936 Y11.5299
G01 X21.9864 Y11.5299
G01 X22.1774 Y11.5551
G01 X22.3636 Y11.6049
G01 X22.5416 Y11.6787
G01 X22.7085 Y11.7750
G01 X22.8614 Y11.8923
G01 X22.9977 Y12.0286
G01 X23.1150 Y12.1815
G01 X23.2113 Y12.3484
G01 X23.2851 Y12.5264
G01 X23.3349 Y12.7126
G01 X23.3601 Y12.9036
G01 X23.3601 Y13.0964
G01 X23.3349 Y13.2874
G01 X23.2851 Y13.4736
G01 X23.2113 Y13.6516
G01 X23.1150 Y13.8185
G01 X22.9977 Y13.9714
G01 X22.8614 Y14.1076
G01 X22.7085 Y14.2250
G01 X22.5416 Y14.3213
G01 X22.3636 Y14.3951
G01 X22.1774 Y14.4449
G01 X21.9864 Y14.4701
G01 X21.7936 Y14.4701
G01 X21.6026 Y14.4449
G01 X21.4164 Y14.3951
G01 X21.2384 Y14.3213
G01 X21.0715 Y14.2250
G01 X20.9186 Y14.1077
G01 X20.7824 Y13.9714
G01 X20.6650 Y13.8185
G01 X20.5687 Y13.6516
G01 X20.5427 Y13.5889
G01 X20.5424 Y13.5890
G01 X20.5368 Y13.5758
G01 X20.5242 Y13.5534
G01 X20.5092 Y13.5325
G01 X20.4654 Y13.4781
G01 X20.4489 Y13.4597
G01 X20.4331 Y13.4453
G01 X20.4160 Y13.4324
G01 X20.3978 Y13.4212
G01 X20.3787 Y13.4117
G01 X20.3588 Y13.4040
G01 X20.2881 Y13.3806
G01 X20.2670 Y13.3751
G01 X20.2455 Y13.3716
G01 X20.2238 Y13.3702
G01 X13.9541 Y13.3701
G01 X13.9322 Y13.3711
G01 X13.9105 Y13.3743
G01 X13.8892 Y13.3794
G01 X13.8221 Y13.3991
G01 X13.7979 Y13.4077
G01 X13.7747 Y13.4190
G01 X13.7530 Y13.4328
G01 X13.7337 Y13.4482
G01 X13.7162 Y13.4656
G01 X13.6727 Y13.5136
G01 X13.6591 Y13.5302
G01 X13.6480 Y13.5465
G01 X13.6383 Y13.5636
G01 X13.5863 Y13.6657
G01 X13.4688 Y13.8274
G01 X13.3274 Y13.9688
G01 X13.1657 Y14.0863
G01 X12.9876 Y14.1770
G01 X12.7974 Y14.2388
G01 X12.6000 Y14.2701
G01 X12.4000 Y14.2701
G01 X12.2026 Y14.2388
G01 X12.0124 Y14.1770
G01 X11.8343 Y14.0863
G01 X11.6726 Y13.9688
G01 X11.5312 Y13.8274
G01 X11.4137 Y13.6657
G01 X11.3230 Y13.4876
G01 X11.2612 Y13.2974
G01 X11.2299 Y13.1000
G00 Z2.0000
G00 X11.1531 Y13.1060
G01 F60.00
G01 Z-0.1000
G01 F120.00
G01 X11.1531 Y12.8940
G01 X11.1863 Y12.6846
G01 X11.2518 Y12.4830
G01 X11.3480 Y12.2941
G01 X11.4726 Y12.1226
G01 X11.6226 Y11.9726
G01 X11.7941 Y11.8480
G01 X11.9830 Y11.7518
G01 X12.1846 Y11.6863
G01 X12.3940 Y11.6531
G01 X12.6060 Y11.6531
G01 X12.8154 Y11.6863
G01 X13.0170 Y11.7518
G01 X13.2059 Y11.8480
G01 X13.3774 Y11.9726
G01 X13.5274 Y12.1226
G01 X13.6520 Y12.2941
G01 X13.7067 Y12.4015
G01 X13.7133 Y12.4132
G01 X13.7210 Y12.4243
G01 X13.7319 Y12.4373
G01 X13.7799 Y12.4881
G01 X13.7923 Y12.4998
G01 X13.8060 Y12.5102
G01 X13.8208 Y12.5189
G01 X13.8358 Y12.5257
G01 X13.8515 Y12.5309
G01 X13.9140 Y12.5478
G01 X13.9272 Y12.5507
G01 X13.9406 Y12.5525
G01 X13.9541 Y12.5531
G01 X20.2153 Y12.5531
G01 X20.2299 Y12.5524
G01 X20.2443 Y12.5503
G01 X20.2585 Y12.5469
G01 X20.3256 Y12.5272
G01 X20.3393 Y12.5224
G01 X20.3526 Y12.5164
G01 X20.3652 Y12.5091
G01 X20.3772 Y12.5006
G01 X20.3883 Y12.4910
G01 X20.3984 Y12.4804
G01 X20.4442 Y12.4276
G01 X20.4521 Y12.4176
G01 X20.4593 Y12.4069
G01 X20.4655 Y12.3956
G01 X20.4689 Y12.3883
G01 X20.4996 Y12.3144
G01 X20.6010 Y12.1387
G01 X20.7245 Y11.9779
G01 X20.8679 Y11.8345
G01 X21.0287 Y11.7110
G01 X21.2044 Y11.6097
G01 X21.3917 Y11.5321
G01 X21.5876 Y11.4796
G01 X21.7886 Y11.4531
G01 X21.9914 Y11.4531
G01 X22.1924 Y11.4796
G01 X22.3883 Y11.5321
G01 X22.5756 Y11.6097
G01 X22.7513 Y11.7110
G01 X22.9121 Y11.8345
G01 X23.0555 Y11.9779
G01 X23.1790 Y12.1387
G01 X23.2803 Y12.3144
G01 X23.3579 Y12.5017
G01 X23.4104 Y12.6976
G01 X23.4369 Y12.8986
G01 X23.4369 Y13.1014
G01 X23.4104 Y13.3024
G01 X23.3579 Y13.4983
G01 X23.2803 Y13.6856
G01 X23.1790 Y13.8613
G01 X23.0555 Y14.0221
G01 X22.9121 Y14.1655
G01 X22.7513 Y14.2890
G01 X22.5756 Y14.3904
G01 X22.3883 Y14.4679
G01 X22.1924 Y14.5204
G01 X21.9914 Y14.5469
G01 X21.7886 Y14.5469
G01 X21.5876 Y14.5204
G01 X21.3917 Y14.4679
G01 X21.2044 Y14.3904
G01 X21.0287 Y14.2890
G01 X20.8679 Y14.1655
G01 X20.7245 Y14.0221
G01 X20.6010 Y13.8613
G01 X20.4997 Y13.6856
G01 X20.4717 Y13.6183
G01 X20.4678 Y13.6095
G01 X20.4594 Y13.5946
G01 X20.4494 Y13.5807
G01 X20.4056 Y13.5263
G01 X20.3946 Y13.5140
G01 X20.3840 Y13.5044
G01 X20.3727 Y13.4958
G01 X20.3606 Y13.4884
G01 X20.3478 Y13.4820
G01 X20.3345 Y13.4769
G01 X20.2653 Y13.4539
G01 X20.2512 Y13.4503
G01 X20.2369 Y13.4479
G01 X20.2224 Y13.4470
G01 X13.9541 Y13.4469
G01 X13.9395 Y13.4476
G01 X13.9250 Y13.4497
G01 X13.9108 Y13.4531
G01 X13.8438 Y13.4728
G01 X13.8276 Y13.4786
G01 X13.8122 Y13.4861
G01 X13.7977 Y13.4953
G01 X13.7848 Y13.5055
G01 X13.7731 Y13.5171
G01 X13.7297 Y13.5652
G01 X13.7206 Y13.5762
G01 X13.7132 Y13.5870
G01 X13.7067 Y13.5985
G01 X13.6520 Y13.7059
G01 X13.5274 Y13.8774
G01 X13.3774 Y14.0274
G01 X13.2059 Y14.1520
G01 X13.0170 Y14.2482
G01 X12.8154 Y14.3137
G01 X12.6060 Y14.3469
G01 X12.3940 Y14.3469
G01 X12.1846 Y14.3137
G01 X11.9830 Y14.2482
G01 X11.7941 Y14.1520
G01 X11.6226 Y14.0274
G01 X11.4726 Y13.8775
G01 X11.3480 Y13.7059
G01 X11.2518 Y13.5170
G01 X11.1863 Y13.3154
G01 X11.1531 Y13.1060
G00 Z2.0000
G00 X11.0763 Y13.1121
G01 F60.00
G01 Z-0.1000
G01 F120.00
G01 X11.0763 Y12.8879
G01 X11.1114 Y12.6666
G01 X11.1806 Y12.4535
G01 X11.2823 Y12.2538
G01 X11.4141 Y12.0725
G01 X11.5725 Y11.9141
G01 X11.7538 Y11.7823
G01 X11.9535 Y11.6806
G01 X12.1666 Y11.6114
G01 X12.3879 Y11.5763
G01 X12.6121 Y11.5763
G01 X12.8334 Y11.6114
G01 X13.0465 Y11.6806
G01 X13.2462 Y11.7823
G01 X13.4275 Y11.9141
G01 X13.5859 Y12.0725
G01 X13.7177 Y12.2538
G01 X13.7752 Y12.3667
G01 X13.7785 Y12.3725
G01 X13.7823 Y12.3780
G01 X13.7877 Y12.3845
G01 X13.8357 Y12.4353
G01 X13.8419 Y12.4412
G01 X13.8488 Y12.4464
G01 X13.8562 Y12.4507
G01 X13.8637 Y12.4541
G01 X13.8715 Y12.4567
G01 X13.9340 Y12.4736
G01 X13.9406 Y12.4751
G01 X13.9473 Y12.4760
G01 X13.9541 Y12.4763
G01 X20.2153 Y12.4763
G01 X20.2226 Y12.4760
G01 X20.2298 Y12.4749
G01 X20.2369 Y12.4732
G01 X20.3039 Y12.4535
G01 X20.3108 Y12.4511
G01 X20.3174 Y12.4481
G01 X20.3237 Y12.4445
G01 X20.3297 Y12.4402
G01 X20.3353 Y12.4354
G01 X20.3404 Y12.4301
G01 X20.3861 Y12.3773
G01 X20.3901 Y12.3723
G01 X20.3937 Y12.3669
G01 X20.3968 Y12.3613
G01 X20.4003 Y12.3536
G01 X20.4306 Y12.2803
G01 X20.5370 Y12.0960
G01 X20.6666 Y11.9271
G01 X20.8171 Y11.7766
G01 X20.9860 Y11.6470
G01 X21.1703 Y11.5406
G01 X21.3670 Y11.4592
G01 X21.5726 Y11.4041
G01 X21.7836 Y11.3763
G01 X21.9964 Y11.3763
G01 X22.2074 Y11.4041
G01 X22.4130 Y11.4592
G01 X22.6097 Y11.5406
G01 X22.7940 Y11.6470
G01 X22.9629 Y11.7766
G01 X23.1134 Y11.9271
G01 X23.2430 Y12.0960
G01 X23.3494 Y12.2803
G01 X23.4308 Y12.4770
G01 X23.4859 Y12.6826
G01 X23.5137 Y12.8936
G01 X23.5137 Y13.1064
G01 X23.4859 Y13.3174
G01 X23.4308 Y13.5230
G01 X23.3494 Y13.7197
G01 X23.2430 Y13.9040
G01 X23.1134 Y14.0729
G01 X22.9629 Y14.2234
G01 X22.7940 Y14.3529
G01 X22.6097 Y14.4594
G01 X22.4131 Y14.5408
G01 X22.2074 Y14.5959
G01 X21.9964 Y14.6237
G01 X21.7836 Y14.6237
G01 X21.5726 Y14.5959
G01 X21.3670 Y14.5408
G01 X21.1703 Y14.4594
G01 X20.9860 Y14.3530
G01 X20.8171 Y14.2234
G01 X20.6666 Y14.0729
G01 X20.5371 Y13.9040
G01 X20.4306 Y13.7197
G01 X20.4008 Y13.6477
G01 X20.3988 Y13.6433
G01 X20.3946 Y13.6358
G01 X20.3896 Y13.6289
G01 X20.3458 Y13.5745
G01 X20.3403 Y13.5683
G01 X20.3350 Y13.5635
G01 X20.3293 Y13.5592
G01 X20.3233 Y13.5555
G01 X20.3169 Y13.5523
G01 X20.3102 Y13.5498
G01 X20.2425 Y13.5272
G01 X20.2355 Y13.5254
G01 X20.2283 Y13.5243
G01 X20.2211 Y13.5238
G01 X13.9541 Y13.5237
G01 X13.9468 Y13.5240
G01 X13.9395 Y13.5251
G01 X13.9324 Y13.5268
G01 X13.8654 Y13.5465
G01 X13.8573 Y13.5494
G01 X13.8496 Y13.5531
G01 X13.8423 Y13.5577
G01 X13.8359 Y13.5629
G01 X13.8301 Y13.5687
G01 X13.7866 Y13.6167
G01 X13.7821 Y13.6222
G01 X13.7784 Y13.6276
G01 X13.7752 Y13.6333
G01 X13.7177 Y13.7462
G01 X13.5859 Y13.9275
G01 X13.4275 Y14.0859
G01 X13.2462 Y14.2177
G01 X13.0465 Y14.3194
G01 X12.8334 Y14.3886
G01 X12.6121 Y14.4237
G01 X12.3879 Y14.4237
G01 X12.1666 Y14.3886
G01 X11.9535 Y14.3194
G01 X11.7538 Y14.2177
G01 X11.5725 Y14.0859
G01 X11.4141 Y13.9275
G01 X11.2823 Y13.7462
G01 X11.1806 Y13.5465
G01 X11.1114 Y13.3334
G01 X11.0763 Y13.1121
G00 Z2.0000
G00 X11.3516 Y13.1055
G01 F60.00
G01 Z-0.1000
G01 F120.00
G01 X11.3466 Y13.0075
G01 X11.3466 Y12.9925
G01 X11.3514 Y12.8944
G01 X11.3529 Y12.8794
G01 X11.3676 Y12.7805
G01 X11.3702 Y12.7676
G01 X11.3941 Y12.6724
G01 X11.3984 Y12.6580
G01 X11.4315 Y12.5656
G01 X11.4373 Y12.5516
G01 X11.4792 Y12.4629
G01 X11.4863 Y12.4496
G01 X11.5368 Y12.3655
G01 X11.5444 Y12.3540
G01 X11.6036 Y12.2741
G01 X11.6134 Y12.2627
G01 X11.6132 Y12.2625
G01 X11.6791 Y12.1897
G01 X11.6897 Y12.1791
G01 X11.7625 Y12.1132
G01 X11.7741 Y12.1036
G01 X11.8529 Y12.0452
G01 X11.8655 Y12.0368
G01 X11.9496 Y11.9863
G01 X11.9629 Y11.9792
G01 X12.0516 Y11.9373
G01 X12.0656 Y11.9315
G01 X12.1580 Y11.8984
G01 X12.1724 Y11.8941
G01 X12.2676 Y11.8702
G01 X12.2805 Y11.8676
G01 X12.3794 Y11.8529
G01 X12.3944 Y11.8514
G01 X12.4925 Y11.8466
G01 X12.5075 Y11.8466
G01 X12.6056 Y11.8514
G01 X12.6206 Y11.8529
G01 X12.7176 Y11.8673
G01 X12.7324 Y11.8702
G01 X12.8276 Y11.8941
G01 X12.8420 Y11.8984
G01 X12.9344 Y11.9315
G01 X12.9484 Y11.9373
G01 X13.0371 Y11.9792
G01 X13.0504 Y11.9863
G01 X13.1345 Y12.0368
G01 X13.1460 Y12.0444
G01 X13.2259 Y12.1036
G01 X13.2373 Y12.1134
G01 X13.2375 Y12.1132
G01 X13.3103 Y12.1791
G01 X13.3209 Y12.1897
G01 X13.3868 Y12.2625
G01 X13.3964 Y12.2741
G01 X13.4548 Y12.3529
G01 X13.4632 Y12.3655
G01 X13.5137 Y12.4496
G01 X13.5208 Y12.4629
G01 X13.5627 Y12.5516
G01 X13.5685 Y12.5656
G01 X13.6016 Y12.6580
G01 X13.6059 Y12.6724
G01 X13.6245 Y12.7463
G01 X20.5607 Y12.7463
G01 X20.5641 Y12.7286
G01 X20.5927 Y12.6143
G01 X20.5971 Y12.5999
G01 X20.6367 Y12.4890
G01 X20.6425 Y12.4751
G01 X20.6928 Y12.3687
G01 X20.6999 Y12.3554
G01 X20.7605 Y12.2543
G01 X20.7681 Y12.2428
G01 X20.8390 Y12.1472
G01 X20.8488 Y12.1358
G01 X20.8486 Y12.1356
G01 X20.9277 Y12.0483
G01 X20.9383 Y12.0377
G01 X21.0256 Y11.9586
G01 X21.0372 Y11.9490
G01 X21.1318 Y11.8789
G01 X21.1443 Y11.8705
G01 X21.2454 Y11.8099
G01 X21.2587 Y11.8028
G01 X21.3651 Y11.7525
G01 X21.3790 Y11.7467
G01 X21.4899 Y11.7071
G01 X21.5043 Y11.7027
G01 X21.6186 Y11.6741
G01 X21.6315 Y11.6714
G01 X21.7498 Y11.6538
G01 X21.7648 Y11.6524
G01 X21.8825 Y11.6466
G01 X21.8975 Y11.6466
G01 X22.0152 Y11.6524
G01 X22.0302 Y11.6538
G01 X22.1466 Y11.6711
G01 X22.1614 Y11.6741
G01 X22.2757 Y11.7027
G01 X22.2901 Y11.7071
G01 X22.4010 Y11.7467
G01 X22.4149 Y11.7525
G01 X22.5213 Y11.8028
G01 X22.5346 Y11.8099
G01 X22.6357 Y11.8705
G01 X22.6472 Y11.8781
G01 X22.7428 Y11.9490
G01 X22.7542 Y11.9588
G01 X22.7544 Y11.9586
G01 X22.8417 Y12.0377
G01 X22.8523 Y12.0483
G01 X22.9314 Y12.1356
G01 X22.9410 Y12.1472
G01 X23.0111 Y12.2418
G01 X23.0195 Y12.2543
G01 X23.0801 Y12.3554
G01 X23.0872 Y12.3687
G01 X23.1375 Y12.4751
G01 X23.1433 Y12.4890
G01 X23.1829 Y12.5999
G01 X23.1873 Y12.6143
G01 X23.2159 Y12.7286
G01 X23.2186 Y12.7415
G01 X23.2362 Y12.8598
G01 X23.2376 Y12.8748
G01 X23.2434 Y12.9925
G01 X23.2434 Y13.0075
G01 X23.2376 Y13.1252
G01 X23.2362 Y13.1402
G01 X23.2189 Y13.2566
G01 X23.2159 Y13.2714
G01 X23.1873 Y13.3857
G01 X23.1829 Y13.4001
G01 X23.1433 Y13.5110
G01 X23.1375 Y13.5249
G01 X23.0872 Y13.6313
G01 X23.0801 Y13.6446
G01 X23.0195 Y13.7457
G01 X23.0119 Y13.7572
G01 X22.9410 Y13.8528
G01 X22.9312 Y13.8642
G01 X22.9314 Y13.8644
G01 X22.8523 Y13.9517
G01 X22.8417 Y13.9623
G01 X22.7544 Y14.0414
G01 X22.7428 Y14.0510
G01 X22.6482 Y14.1211
G01 X22.6357 Y14.1295
G01 X22.5346 Y14.1901
G01 X22.5213 Y14.1972
G01 X22.4149 Y14.2475
G01 X22.4010 Y14.2533
G01 X22.2901 Y14.2929
G01 X22.2757 Y14.2973
G01 X22.1614 Y14.3259
G01 X22.1485 Y14.3286
G01 X22.0302 Y14.3462
G01 X22.0152 Y14.3476
G01 X21.8975 Y14.3534
G01 X21.8825 Y14.3534
G01 X21.7648 Y14.3476
G01 X21.7498 Y14.3462
G01 X21.6334 Y14.3289
G01 X21.6186 Y14.3259
G01 X21.5043 Y14.2973
G01 X21.4899 Y14.2929
G01 X21.3790 Y14.2533
G01 X21.3651 Y14.2475
G01 X21.2587 Y14.1972
G01 X21.2454 Y14.1901
G01 X21.1443 Y14.1295
G01 X21.1328 Y14.1219
G01 X21.0372 Y14.0510
G01 X21.0258 Y14.0412
G01 X21.0256 Y14.0414
G01 X20.9383 Y13.9623
G01 X20.9277 Y13.9517
G01 X20.8486 Y13.8644
G01 X20.8390 Y13.8528
G01 X20.7689 Y13.7582
G01 X20.7605 Y13.7457
G01 X20.6999 Y13.6446
G01 X20.6928 Y13.6313
G01 X20.6425 Y13.5249
G01 X20.6367 Y13.5110
G01 X20.5971 Y13.4001
G01 X20.5927 Y13.3857
G01 X20.5641 Y13.2714
G01 X20.5607 Y13.2537
G01 X13.6245 Y13.2537
G01 X13.6059 Y13.3276
G01 X13.6016 Y13.3420
G01 X13.5685 Y13.4344
G01 X13.5627 Y13.4484
G01 X13.5208 Y13.5371
G01 X13.5137 Y13.5504
G01 X13.4632 Y13.6345
G01 X13.4556 Y13.6460
G01 X13.3964 Y13.7259
G01 X13.3866 Y13.7373
G01 X13.3868 Y13.7375
G01 X13.3209 Y13.8103
G01 X13.3103 Y13.8209
G01 X13.2375 Y13.8868
G01 X13.2259 Y13.8964
G01 X13.1471 Y13.9548
G01 X13.1345 Y13.9632
G01 X13.0504 Y14.0137
G01 X13.0371 Y14.0208
G01 X12.9484 Y14.0627
G01 X12.9344 Y14.0685
G01 X12.8420 Y14.1016
G01 X12.8276 Y14.1059
G01 X12.7324 Y14.1298
G01 X12.7195 Y14.1324
G01 X12.6206 Y14.1471
G01 X12.6056 Y14.1486
G01 X12.5075 Y14.1534
G01 X12.4925 Y14.1534
G01 X12.3944 Y14.1486
G01 X12.3794 Y14.1471
G01 X12.2824 Y14.1327
G01 X12.2676 Y14.1298
G01 X12.1724 Y14.1059
G01 X12.1580 Y14.1016
G01 X12.0656 Y14.0685
G01 X12.0516 Y14.0627
G01 X11.9629 Y14.0208
G01 X11.9496 Y14.0137
G01 X11.8655 Y13.9632
G01 X11.8540 Y13.9556
G01 X11.7741 Y13.8964
G01 X11.7627 Y13.8866
G01 X11.7625 Y13.8868
G01 X11.6897 Y13.8209
G01 X11.6791 Y13.8103
G01 X11.6132 Y13.7375
G01 X11.6036 Y13.7259
G01 X11.5452 Y13.6471
G01 X11.5368 Y13.6345
G01 X11.4863 Y13.5504
G01 X11.4792 Y13.5371
G01 X11.4373 Y13.4484
G01 X11.4315 Y13.4344
G01 X11.3984 Y13.3420
G01 X11.3941 Y13.3276
G01 X11.3702 Y13.2324
G01 X11.3673 Y13.2176
G01 X11.3529 Y13.1206
G01 X11.3516 Y13.1055
G00 Z2.0000
G00 X11.4282 Y13.1018
G01 F60.00
G01 Z-0.1000
G01 F120.00
G01 X11.4233 Y13.0038
G01 X11.4233 Y12.9962
G01 X11.4281 Y12.8982
G01 X11.4288 Y12.8907
G01 X11.4434 Y12.7927
G01 X11.4447 Y12.7862
G01 X11.4686 Y12.6911
G01 X11.4707 Y12.6838
G01 X11.5038 Y12.5914
G01 X11.5067 Y12.5845
G01 X11.5487 Y12.4958
G01 X11.5522 Y12.4891
G01 X11.6027 Y12.4049
G01 X11.6065 Y12.3992
G01 X11.6653 Y12.3199
G01 X11.6701 Y12.3140
G01 X11.7360 Y12.2413
G01 X11.7413 Y12.2360
G01 X11.8140 Y12.1701
G01 X11.8199 Y12.1653
G01 X11.8987 Y12.1068
G01 X11.9049 Y12.1027
G01 X11.9891 Y12.0522
G01 X11.9958 Y12.0487
G01 X12.0845 Y12.0067
G01 X12.0914 Y12.0038
G01 X12.1838 Y11.9707
G01 X12.1911 Y11.9686
G01 X12.2862 Y11.9447
G01 X12.2927 Y11.9434
G01 X12.3907 Y11.9288
G01 X12.3982 Y11.9281
G01 X12.4962 Y11.9233
G01 X12.5038 Y11.9233
G01 X12.6018 Y11.9281
G01 X12.6093 Y11.9288
G01 X12.7064 Y11.9432
G01 X12.7138 Y11.9447
G01 X12.8089 Y11.9686
G01 X12.8162 Y11.9707
G01 X12.9086 Y12.0038
G01 X12.9155 Y12.0067
G01 X13.0042 Y12.0487
G01 X13.0109 Y12.0522
G01 X13.0951 Y12.1027
G01 X13.1008 Y12.1065
G01 X13.1801 Y12.1653
G01 X13.1860 Y12.1701
G01 X13.2587 Y12.2360
G01 X13.2640 Y12.2413
G01 X13.3299 Y12.3140
G01 X13.3347 Y12.3199
G01 X13.3932 Y12.3987
G01 X13.3973 Y12.4049
G01 X13.4478 Y12.4891
G01 X13.4513 Y12.4958
G01 X13.4933 Y12.5845
G01 X13.4962 Y12.5914
G01 X13.5293 Y12.6838
G01 X13.5314 Y12.6911
G01 X13.5553 Y12.7862
G01 X13.5566 Y12.7927
G01 X13.5611 Y12.8231
G01 X20.6269 Y12.8231
G01 X20.6371 Y12.7546
G01 X20.6386 Y12.7472
G01 X20.6672 Y12.6330
G01 X20.6694 Y12.6258
G01 X20.7090 Y12.5149
G01 X20.7119 Y12.5079
G01 X20.7623 Y12.4015
G01 X20.7658 Y12.3948
G01 X20.8264 Y12.2938
G01 X20.8302 Y12.2881
G01 X20.9007 Y12.1930
G01 X20.9055 Y12.1872
G01 X20.9846 Y12.0999
G01 X20.9899 Y12.0946
G01 X21.0772 Y12.0155
G01 X21.0830 Y12.0107
G01 X21.1776 Y11.9406
G01 X21.1838 Y11.9364
G01 X21.2848 Y11.8758
G01 X21.2915 Y11.8723
G01 X21.3979 Y11.8219
G01 X21.4049 Y11.8190
G01 X21.5158 Y11.7794
G01 X21.5230 Y11.7772
G01 X21.6372 Y11.7486
G01 X21.6437 Y11.7472
G01 X21.7611 Y11.7298
G01 X21.7686 Y11.7291
G01 X21.8862 Y11.7233
G01 X21.8938 Y11.7233
G01 X22.0114 Y11.7291
G01 X22.0189 Y11.7298
G01 X22.1354 Y11.7471
G01 X22.1428 Y11.7486
G01 X22.2570 Y11.7772
G01 X22.2642 Y11.7794
G01 X22.3751 Y11.8190
G01 X22.3821 Y11.8219
G01 X22.4885 Y11.8723
G01 X22.4952 Y11.8758
G01 X22.5962 Y11.9364
G01 X22.6019 Y11.9402
G01 X22.6970 Y12.0107
G01 X22.7028 Y12.0155
G01 X22.7901 Y12.0946
G01 X22.7954 Y12.0999
G01 X22.8745 Y12.1872
G01 X22.8793 Y12.1930
G01 X22.9494 Y12.2876
G01 X22.9536 Y12.2938
G01 X23.0142 Y12.3948
G01 X23.0177 Y12.4015
G01 X23.0681 Y12.5079
G01 X23.0710 Y12.5149
G01 X23.1106 Y12.6258
G01 X23.1128 Y12.6330
G01 X23.1414 Y12.7472
G01 X23.1428 Y12.7537
G01 X23.1602 Y12.8711
G01 X23.1609 Y12.8786
G01 X23.1667 Y12.9962
G01 X23.1667 Y13.0038
G01 X23.1609 Y13.1214
G01 X23.1602 Y13.1289
G01 X23.1429 Y13.2454
G01 X23.1414 Y13.2528
G01 X23.1128 Y13.3670
G01 X23.1106 Y13.3742
G01 X23.0710 Y13.4851
G01 X23.0681 Y13.4921
G01 X23.0177 Y13.5985
G01 X23.0142 Y13.6052
G01 X22.9536 Y13.7062
G01 X22.9498 Y13.7119
G01 X22.8793 Y13.8070
G01 X22.8745 Y13.8128
G01 X22.7954 Y13.9001
G01 X22.7901 Y13.9054
G01 X22.7028 Y13.9845
G01 X22.6970 Y13.9893
G01 X22.6024 Y14.0594
G01 X22.5962 Y14.0636
G01 X22.4952 Y14.1242
G01 X22.4885 Y14.1277
G01 X22.3821 Y14.1781
G01 X22.3751 Y14.1810
G01 X22.2642 Y14.2206
G01 X22.2570 Y14.2228
G01 X22.1428 Y14.2514
G01 X22.1363 Y14.2528
G01 X22.0189 Y14.2702
G01 X22.0114 Y14.2709
G01 X21.8938 Y14.2767
G01 X21.8862 Y14.2767
G01 X21.7686 Y14.2709
G01 X21.7611 Y14.2702
G01 X21.6446 Y14.2529
G01 X21.6372 Y14.2514
G01 X21.5230 Y14.2228
G01 X21.5158 Y14.2206
G01 X21.4049 Y14.1810
G01 X21.3979 Y14.1781
G01 X21.2915 Y14.1277
G01 X21.2848 Y14.1242
G01 X21.1838 Y14.0636
G01 X21.1776 Y14.0594
G01 X21.0830 Y13.9893
G01 X21.0772 Y13.9845
G01 X20.9899 Y13.9054
G01 X20.9846 Y13.9001
G01 X20.9055 Y13.8128
G01 X20.9007 Y13.8070
G01 X20.8306 Y13.7124
G01 X20.8264 Y13.7062
G01 X20.7658 Y13.6052
G01 X20.7623 Y13.5985
G01 X20.7119 Y13.4921
G01 X20.7090 Y13.4851
G01 X20.6694 Y13.3742
G01 X20.6672 Y13.3670
G01 X20.6386 Y13.2528
G01 X20.6371 Y13.2454
G01 X20.6269 Y13.1769
G01 X13.5611 Y13.1769
G01 X13.5568 Y13.2064
G01 X13.5553 Y13.2138
G01 X13.5314 Y13.3089
G01 X13.5293 Y13.3162
G01 X13.4962 Y13.4086
G01 X13.4933 Y13.4155
G01 X13.4513 Y13.5042
G01 X13.4478 Y13.5109
G01 X13.3973 Y13.5951
G01 X13.3935 Y13.6008
G01 X13.3347 Y13.6801
G01 X13.3299 Y13.6860
G01 X13.2640 Y13.7587
G01 X13.2587 Y13.7640
G01 X13.1860 Y13.8299
G01 X13.1801 Y13.8347
G01 X13.1013 Y13.8932
G01 X13.0951 Y13.8973
G01 X13.0109 Y13.9478
G01 X13.0042 Y13.9513
G01 X12.9155 Y13.9933
G01 X12.9086 Y13.9962
G01 X12.8162 Y14.0293
G01 X12.8089 Y14.0314
G01 X12.7138 Y14.0553
G01 X12.7073 Y14.0566
G01 X12.6093 Y14.0712
G01 X12.6018 Y14.0719
G01 X12.5038 Y14.0767
G01 X12.4962 Y14.0767
G01 X12.3982 Y14.0719
G01 X12.3907 Y14.0712
G01 X12.2936 Y14.0568
G01 X12.2862 Y14.0553
G01 X12.1911 Y14.0314
G01 X12.1838 Y14.0293
G01 X12.0914 Y13.9962
G01 X12.0845 Y13.9933
G01 X11.9958 Y13.9513
G01 X11.9891 Y13.9478
G01 X11.9049 Y13.8973
G01 X11.8992 Y13.8935
G01 X11.8199 Y13.8347
G01 X11.8140 Y13.8299
G01 X11.7413 Y13.7640
G01 X11.7360 Y13.7587
G01 X11.6701 Y13.6860
G01 X11.6653 Y13.6801
G01 X11.6068 Y13.6013
G01 X11.6027 Y13.5951
G01 X11.5522 Y13.5109
G01 X11.5487 Y13.5042
G01 X11.5067 Y13.4155
G01 X11.5038 Y13.4086
G01 X11.4707 Y13.3162
G01 X11.4686 Y13.3089
G01 X11.4447 Y13.2138
G01 X11.4432 Y13.2064
G01 X11.4288 Y13.1093
G01 X11.4282 Y13.1018
G00 Z2.0000
G00 X28.0860 Y13.1289
G01 F60.00
G01 Z-0.1000
G01 F120.00
G01 X28.0857 Y13.1289
G01 X28.0799 Y13.0113
G01 X28.0799 Y12.9887
G01 X28.0857 Y12.8711
G01 X28.0879 Y12.8486
G01 X28.1056 Y12.7293
G01 X28.1096 Y12.7099
G01 X28.1382 Y12.5957
G01 X28.1450 Y12.5741
G01 X28.1447 Y12.5740
G01 X28.1844 Y12.4632
G01 X28.1931 Y12.4423
G01 X28.2434 Y12.3358
G01 X28.2541 Y12.3159
G01 X28.3146 Y12.2149
G01 X28.3261 Y12.1976
G01 X28.3973 Y12.1015
G01 X28.4120 Y12.0843
G01 X28.4117 Y12.0840
G01 X28.4908 Y11.9967
G01 X28.5067 Y11.9808
G01 X28.5940 Y11.9017
G01 X28.6115 Y11.8873
G01 X28.7061 Y11.8172
G01 X28.7249 Y11.8046
G01 X28.8259 Y11.7441
G01 X28.8458 Y11.7334
G01 X28.9523 Y11.6831
G01 X28.9732 Y11.6744
G01 X29.0840 Y11.6347
G01 X29.1057 Y11.6282
G01 X29.2199 Y11.5996
G01 X29.2393 Y11.5956
G01 X29.3586 Y11.5779
G01 X29.3811 Y11.5760
G01 X29.3811 Y11.5757
G01 X29.4987 Y11.5699
G01 X29.5213 Y11.5699
G01 X29.6389 Y11.5757
G01 X29.6614 Y11.5779
G01 X29.7779 Y11.5952
G01 X29.8001 Y11.5996
G01 X29.9143 Y11.6282
G01 X29.9359 Y11.6350
G01 X29.9360 Y11.6347
G01 X30.0468 Y11.6744
G01 X30.0677 Y11.6831
G01 X30.1742 Y11.7334
G01 X30.1941 Y11.7441
G01 X30.2951 Y11.8046
G01 X30.3124 Y11.8161
G01 X30.4085 Y11.8873
G01 X30.4257 Y11.9020
G01 X30.4260 Y11.9017
G01 X30.5133 Y11.9808
G01 X30.5292 Y11.9967
G01 X30.6083 Y12.0840
G01 X30.6227 Y12.1015
G01 X30.6928 Y12.1961
G01 X30.7054 Y12.2149
G01 X30.7659 Y12.3159
G01 X30.7766 Y12.3358
G01 X30.8269 Y12.4423
G01 X30.8356 Y12.4632
G01 X30.8753 Y12.5740
G01 X30.8818 Y12.5957
G01 X30.9104 Y12.7099
G01 X30.9144 Y12.7293
G01 X30.9321 Y12.8486
G01 X30.9340 Y12.8711
G01 X30.9343 Y12.8711
G01 X30.9401 Y12.9887
G01 X30.9401 Y13.0113
G01 X30.9343 Y13.1289
G01 X30.9321 Y13.1514
G01 X30.9148 Y13.2679
G01 X30.9104 Y13.2901
G01 X30.8818 Y13.4043
G01 X30.8750 Y13.4259
G01 X30.8753 Y13.4260
G01 X30.8356 Y13.5368
G01 X30.8269 Y13.5577
G01 X30.7766 Y13.6642
G01 X30.7659 Y13.6841
G01 X30.7054 Y13.7851
G01 X30.6939 Y13.8024
G01 X30.6227 Y13.8985
G01 X30.6080 Y13.9157
G01 X30.6083 Y13.9160
G01 X30.5292 Y14.0033
G01 X30.5133 Y14.0192
G01 X30.4260 Y14.0983
G01 X30.4085 Y14.1127
G01 X30.3139 Y14.1828
G01 X30.2951 Y14.1954
G01 X30.1941 Y14.2559
G01 X30.1742 Y14.2666
G01 X30.0677 Y14.3169
G01 X30.0468 Y14.3256
G01 X29.9360 Y14.3653
G01 X29.9143 Y14.3718
G01 X29.8405 Y14.3903
G01 X29.8405 Y33.8731
G01 X30.5969 Y34.6295
G01 X41.8696 Y34.6295
G01 X41.8696 Y34.0600
G01 X41.8705 Y34.0397
G01 X41.8732 Y34.0195
G01 X41.8776 Y33.9996
G01 X41.8838 Y33.9802
G01 X41.8917 Y33.9615
G01 X41.9024 Y33.9415
G01 X41.9149 Y33.9227
G01 X41.9293 Y33.9053
G01 X41.9453 Y33.8893
G01 X41.9628 Y33.8749
G01 X41.9816 Y33.8624
G01 X42.0015 Y33.8517
G01 X42.0250 Y33.8421
G01 X42.0495 Y33.8352
G01 X42.0746 Y33.8310
G01 X42.1000 Y33.8296
G01 X43.9000 Y33.8296
G01 X43.9254 Y33.8310
G01 X43.9505 Y33.8352
G01 X43.9750 Y33.8421
G01 X43.9985 Y33.8517
G01 X44.0184 Y33.8624
G01 X44.0372 Y33.8749
G01 X44.0547 Y33.8893
G01 X44.0707 Y33.9053
G01 X44.0851 Y33.9227
G01 X44.0976 Y33.9415
G01 X44.1083 Y33.9615
G01 X44.1162 Y33.9802
G01 X44.1224 Y33.9996
G01 X44.1268 Y34.0195
G01 X44.1295 Y34.0397
G01 X44.1304 Y34.0600
G01 X44.1304 Y35.8600
G01 X44.1295 Y35.8803
G01 X44.1268 Y35.9005
G01 X44.1224 Y35.9204
G01 X44.1162 Y35.9398
G01 X44.1083 Y35.9585
G01 X44.0976 Y35.9785
G01 X44.0851 Y35.9973
G01 X44.0707 Y36.0147
G01 X44.0547 Y36.0307
G01 X44.0372 Y36.0451
G01 X44.0185 Y36.0576
G01 X43.9985 Y36.0683
G01 X43.9797 Y36.0762
G01 X43.9604 Y36.0824
G01 X43.9405 Y36.0868
G01 X43.9203 Y36.0895
G01 X43.9000 Y36.0904
G01 X42.1000 Y36.0904
G01 X42.0797 Y36.0895
G01 X42.0595 Y36.0868
G01 X42.0396 Y36.0824
G01 X42.0203 Y36.0762
G01 X42.0015 Y36.0683
G01 X41.9815 Y36.0576
G01 X41.9628 Y36.0451
G01 X41.9453 Y36.0307
G01 X41.9293 Y36.0147
G01 X41.9149 Y35.9973
G01 X41.9024 Y35.9785
G01 X41.8917 Y35.9585
G01 X41.8838 Y35.9398
G01 X41.8776 Y35.9204
G01 X41.8732 Y35.9005
G01 X41.8705 Y35.8803
G01 X41.8696 Y35.8600
G01 X41.8696 Y35.2905
G01 X30.4600 Y35.2905
G01 X30.4389 Y35.2897
G01 X30.4164 Y35.2875
G01 X30.4067 Y35.2860
G01 X30.3845 Y35.2816
G01 X30.3750 Y35.2792
G01 X30.3534 Y35.2724
G01 X30.3533 Y35.2727
G01 X30.3441 Y35.2694
G01 X30.3232 Y35.2607
G01 X30.3143 Y35.2565
G01 X30.2944 Y35.2459
G01 X30.2860 Y35.2408
G01 X30.2687 Y35.2294
G01 X30.2593 Y35.2224
G01 X30.2421 Y35.2077
G01 X30.2418 Y35.2081
G01 X30.2345 Y35.2015
G01 X30.2263 Y35.1937
G01 X29.2763 Y34.2437
G01 X29.2619 Y34.2282
G01 X29.2476 Y34.2107
G01 X29.2418 Y34.2028
G01 X29.2292 Y34.1840
G01 X29.2241 Y34.1756
G01 X29.2135 Y34.1557
G01 X29.2093 Y34.1468
G01 X29.2006 Y34.1259
G01 X29.1973 Y34.1167
G01 X29.1908 Y34.0950
G01 X29.1884 Y34.0855
G01 X29.1844 Y34.0661
G01 X29.1825 Y34.0536
G01 X29.1807 Y34.0311
G01 X29.1803 Y34.0311
G01 X29.1795 Y34.0100
G01 X29.1795 Y14.3903
G01 X29.1057 Y14.3718
G01 X29.0841 Y14.3650
G01 X29.0840 Y14.3653
G01 X28.9732 Y14.3256
G01 X28.9523 Y14.3169
G01 X28.8458 Y14.2666
G01 X28.8259 Y14.2559
G01 X28.7249 Y14.1954
G01 X28.7076 Y14.1839
G01 X28.6115 Y14.1127
G01 X28.5943 Y14.0980
G01 X28.5940 Y14.0983
G01 X28.5067 Y14.0192
G01 X28.4908 Y14.0033
G01 X28.4117 Y13.9160
G01 X28.3973 Y13.8985
G01 X28.3272 Y13.8039
G01 X28.3146 Y13.7851
G01 X28.2541 Y13.6841
G01 X28.2434 Y13.6642
G01 X28.1931 Y13.5577
G01 X28.1844 Y13.5368
G01 X28.1447 Y13.4260
G01 X28.1382 Y13.4043
G01 X28.1096 Y13.2901
G01 X28.1056 Y13.2707
G01 X28.0879 Y13.1514
G01 X28.0860 Y13.1289
G00 Z2.0000
G00 X28.1626 Y13.1251
G01 F60.00
G01 Z-0.1000
G01 F120.00
G01 X28.1566 Y13.0075
G01 X28.1566 Y12.9925
G01 X28.1624 Y12.8748
G01 X28.1638 Y12.8598
G01 X28.1814 Y12.7415
G01 X28.1841 Y12.7286
G01 X28.2127 Y12.6143
G01 X28.2171 Y12.5999
G01 X28.2567 Y12.4890
G01 X28.2625 Y12.4751
G01 X28.3128 Y12.3687
G01 X28.3199 Y12.3554
G01 X28.3805 Y12.2543
G01 X28.3881 Y12.2428
G01 X28.4590 Y12.1472
G01 X28.4688 Y12.1358
G01 X28.4686 Y12.1356
G01 X28.5477 Y12.0483
G01 X28.5583 Y12.0377
G01 X28.6456 Y11.9586
G01 X28.6572 Y11.9490
G01 X28.7518 Y11.8789
G01 X28.7643 Y11.8705
G01 X28.8654 Y11.8099
G01 X28.8787 Y11.8028
G01 X28.9851 Y11.7525
G01 X28.9990 Y11.7467
G01 X29.1099 Y11.7071
G01 X29.1243 Y11.7027
G01 X29.2386 Y11.6741
G01 X29.2515 Y11.6714
G01 X29.3698 Y11.6538
G01 X29.3848 Y11.6524
G01 X29.5025 Y11.6466
G01 X29.5175 Y11.6466
G01 X29.6352 Y11.6524
G01 X29.6502 Y11.6538
G01 X29.7666 Y11.6711
G01 X29.7814 Y11.6741
G01 X29.8957 Y11.7027
G01 X29.9101 Y11.7071
G01 X30.0210 Y11.7467
G01 X30.0349 Y11.7525
G01 X30.1413 Y11.8028
G01 X30.1546 Y11.8099
G01 X30.2557 Y11.8705
G01 X30.2672 Y11.8781
G01 X30.3628 Y11.9490
G01 X30.3742 Y11.9588
G01 X30.3744 Y11.9586
G01 X30.4617 Y12.0377
G01 X30.4723 Y12.0483
G01 X30.5514 Y12.1356
G01 X30.5610 Y12.1472
G01 X30.6311 Y12.2418
G01 X30.6395 Y12.2543
G01 X30.7001 Y12.3554
G01 X30.7072 Y12.3687
G01 X30.7575 Y12.4751
G01 X30.7633 Y12.4890
G01 X30.8029 Y12.5999
G01 X30.8073 Y12.6143
G01 X30.8359 Y12.7286
G01 X30.8386 Y12.7415
G01 X30.8562 Y12.8598
G01 X30.8576 Y12.8748
G01 X30.8634 Y12.9925
G01 X30.8634 Y13.0075
G01 X30.8576 Y13.1252
G01 X30.8562 Y13.1402
G01 X30.8389 Y13.2566
G01 X30.8359 Y13.2714
G01 X30.8073 Y13.3857
G01 X30.8029 Y13.4001
G01 X30.7633 Y13.5110
G01 X30.7575 Y13.5249
G01 X30.7072 Y13.6313
G01 X30.7001 Y13.6446
G01 X30.6395 Y13.7457
G01 X30.6319 Y13.7572
G01 X30.5610 Y13.8528
G01 X30.5512 Y13.8642
G01 X30.5514 Y13.8644
G01 X30.4723 Y13.9517
G01 X30.4617 Y13.9623
G01 X30.3744 Y14.0414
G01 X30.3628 Y14.0510
G01 X30.2682 Y14.1211
G01 X30.2557 Y14.1295
G01 X30.1546 Y14.1901
G01 X30.1413 Y14.1972
G01 X30.0349 Y14.2475
G01 X30.0210 Y14.2533
G01 X29.9101 Y14.2929
G01 X29.8957 Y14.2973
G01 X29.7814 Y14.3259
G01 X29.7637 Y14.3293
G01 X29.7637 Y33.9049
G01 X30.5651 Y34.7063
G01 X41.9464 Y34.7063
G01 X41.9464 Y34.0600
G01 X41.9470 Y34.0464
G01 X41.9488 Y34.0330
G01 X41.9518 Y34.0198
G01 X41.9559 Y34.0068
G01 X41.9611 Y33.9943
G01 X41.9683 Y33.9810
G01 X41.9766 Y33.9685
G01 X41.9862 Y33.9568
G01 X41.9969 Y33.9462
G01 X42.0085 Y33.9366
G01 X42.0210 Y33.9283
G01 X42.0343 Y33.9211
G01 X42.0500 Y33.9148
G01 X42.0663 Y33.9101
G01 X42.0831 Y33.9073
G01 X42.1000 Y33.9064
G01 X43.9000 Y33.9064
G01 X43.9169 Y33.9073
G01 X43.9337 Y33.9101
G01 X43.9500 Y33.9148
G01 X43.9657 Y33.9211
G01 X43.9790 Y33.9283
G01 X43.9915 Y33.9366
G01 X44.0031 Y33.9462
G01 X44.0138 Y33.9568
G01 X44.0234 Y33.9685
G01 X44.0317 Y33.9810
G01 X44.0389 Y33.9943
G01 X44.0441 Y34.0068
G01 X44.0482 Y34.0198
G01 X44.0512 Y34.0330
G01 X44.0530 Y34.0464
G01 X44.0536 Y34.0600
G01 X44.0536 Y35.8600
G01 X44.0530 Y35.8736
G01 X44.0512 Y35.8870
G01 X44.0482 Y35.9002
G01 X44.0441 Y35.9132
G01 X44.0388 Y35.9257
G01 X44.0317 Y35.9390
G01 X44.0234 Y35.9515
G01 X44.0138 Y35.9632
G01 X44.0032 Y35.9738
G01 X43.9915 Y35.9834
G01 X43.9790 Y35.9917
G01 X43.9657 Y35.9989
G01 X43.9532 Y36.0041
G01 X43.9402 Y36.0082
G01 X43.9270 Y36.0112
G01 X43.9136 Y36.0130
G01 X43.9000 Y36.0136
G01 X42.1000 Y36.0136
G01 X42.0864 Y36.0130
G01 X42.0730 Y36.0112
G01 X42.0598 Y36.0082
G01 X42.0468 Y36.0041
G01 X42.0343 Y35.9989
G01 X42.0210 Y35.9917
G01 X42.0085 Y35.9834
G01 X41.9968 Y35.9738
G01 X41.9862 Y35.9632
G01 X41.9766 Y35.9515
G01 X41.9683 Y35.9390
G01 X41.9612 Y35.9257
G01 X41.9559 Y35.9132
G01 X41.9518 Y35.9002
G01 X41.9488 Y35.8870
G01 X41.9470 Y35.8736
G01 X41.9464 Y35.8600
G01 X41.9464 Y35.2137
G01 X30.4600 Y35.2137
G01 X30.4427 Y35.2130
G01 X30.4277 Y35.2115
G01 X30.4179 Y35.2101
G01 X30.4032 Y35.2071
G01 X30.3936 Y35.2047
G01 X30.3792 Y35.2004
G01 X30.3700 Y35.1971
G01 X30.3560 Y35.1913
G01 X30.3472 Y35.1871
G01 X30.3339 Y35.1800
G01 X30.3254 Y35.1749
G01 X30.3139 Y35.1673
G01 X30.3050 Y35.1607
G01 X30.2936 Y35.1509
G01 X30.2934 Y35.1511
G01 X30.2861 Y35.1446
G01 X29.3306 Y34.1894
G01 X29.3189 Y34.1766
G01 X29.3093 Y34.1650
G01 X29.3034 Y34.1571
G01 X29.2951 Y34.1446
G01 X29.2900 Y34.1361
G01 X29.2829 Y34.1228
G01 X29.2787 Y34.1140
G01 X29.2729 Y34.1000
G01 X29.2696 Y34.0908
G01 X29.2653 Y34.0764
G01 X29.2602 Y34.0539
G01 X29.2585 Y34.0423
G01 X29.2570 Y34.0273
G01 X29.2563 Y34.0100
G01 X29.2563 Y14.3293
G01 X29.2386 Y14.3259
G01 X29.1243 Y14.2973
G01 X29.1099 Y14.2929
G01 X28.9990 Y14.2533
G01 X28.9851 Y14.2475
G01 X28.8787 Y14.1972
G01 X28.8654 Y14.1901
G01 X28.7643 Y14.1295
G01 X28.7518 Y14.1211
G01 X28.6572 Y14.0510
G01 X28.6458 Y14.0412
G01 X28.6456 Y14.0414
G01 X28.5583 Y13.9623
G01 X28.5477 Y13.9517
G01 X28.4686 Y13.8644
G01 X28.4590 Y13.8528
G01 X28.3889 Y13.7582
G01 X28.3805 Y13.7457
G01 X28.3199 Y13.6446
G01 X28.3128 Y13.6313
G01 X28.2625 Y13.5249
G01 X28.2567 Y13.5110
G01 X28.2171 Y13.4001
G01 X28.2127 Y13.3857
G01 X28.1841 Y13.2714
G01 X28.1811 Y13.2566
G01 X28.1638 Y13.1402
G01 X28.1626 Y13.1251
G00 Z2.0000
G00 X28.2392 Y13.1214
G01 F60.00
G01 Z-0.1000
G01 F120.00
G01 X28.2333 Y13.0038
G01 X28.2333 Y12.9962
G01 X28.2391 Y12.8786
G01 X28.2398 Y12.8711
G01 X28.2572 Y12.7537
G01 X28.2586 Y12.7472
G01 X28.2872 Y12.6330
G01 X28.2894 Y12.6258
G01 X28.3290 Y12.5149
G01 X28.3319 Y12.5079
G01 X28.3823 Y12.4015
G01 X28.3858 Y12.3948
G01 X28.4464 Y12.2938
G01 X28.4502 Y12.2881
G01 X28.5207 Y12.1930
G01 X28.5255 Y12.1872
G01 X28.6046 Y12.0999
G01 X28.6099 Y12.0946
G01 X28.6972 Y12.0155
G01 X28.7030 Y12.0107
G01 X28.7976 Y11.9406
G01 X28.8038 Y11.9364
G01 X28.9048 Y11.8758
G01 X28.9115 Y11.8723
G01 X29.0179 Y11.8219
G01 X29.0249 Y11.8190
G01 X29.1358 Y11.7794
G01 X29.1430 Y11.7772
G01 X29.2572 Y11.7486
G01 X29.2637 Y11.7472
G01 X29.3811 Y11.7298
G01 X29.3886 Y11.7291
G01 X29.5062 Y11.7233
G01 X29.5138 Y11.7233
G01 X29.6314 Y11.7291
G01 X29.6389 Y11.7298
G01 X29.7554 Y11.7471
G01 X29.7628 Y11.7486
G01 X29.8770 Y11.7772
G01 X29.8842 Y11.7794
G01 X29.9951 Y11.8190
G01 X30.0021 Y11.8219
G01 X30.1085 Y11.8723
G01 X30.1152 Y11.8758
G01 X30.2162 Y11.9364
G01 X30.2219 Y11.9402
G01 X30.3170 Y12.0107
G01 X30.3228 Y12.0155
G01 X30.4101 Y12.0946
G01 X30.4154 Y12.0999
G01 X30.4945 Y12.1872
G01 X30.4993 Y12.1930
G01 X30.5694 Y12.2876
G01 X30.5736 Y12.2938
G01 X30.6342 Y12.3948
G01 X30.6377 Y12.4015
G01 X30.6881 Y12.5079
G01 X30.6910 Y12.5149
G01 X30.7306 Y12.6258
G01 X30.7328 Y12.6330
G01 X30.7614 Y12.7472
G01 X30.7628 Y12.7537
G01 X30.7802 Y12.8711
G01 X30.7809 Y12.8786
G01 X30.7867 Y12.9962
G01 X30.7867 Y13.0038
G01 X30.7809 Y13.1214
G01 X30.7802 Y13.1289
G01 X30.7629 Y13.2454
G01 X30.7614 Y13.2528
G01 X30.7328 Y13.3670
G01 X30.7306 Y13.3742
G01 X30.6910 Y13.4851
G01 X30.6881 Y13.4921
G01 X30.6377 Y13.5985
G01 X30.6342 Y13.6052
G01 X30.5736 Y13.7062
G01 X30.5698 Y13.7119
G01 X30.4993 Y13.8070
G01 X30.4945 Y13.8128
G01 X30.4154 Y13.9001
G01 X30.4101 Y13.9054
G01 X30.3228 Y13.9845
G01 X30.3170 Y13.9893
G01 X30.2224 Y14.0594
G01 X30.2162 Y14.0636
G01 X30.1152 Y14.1242
G01 X30.1085 Y14.1277
G01 X30.0021 Y14.1781
G01 X29.9951 Y14.1810
G01 X29.8842 Y14.2206
G01 X29.8770 Y14.2228
G01 X29.7628 Y14.2514
G01 X29.7554 Y14.2529
G01 X29.6869 Y14.2631
G01 X29.6869 Y33.9367
G01 X30.5333 Y34.7831
G01 X42.0232 Y34.7831
G01 X42.0232 Y34.0600
G01 X42.0235 Y34.0532
G01 X42.0244 Y34.0465
G01 X42.0259 Y34.0399
G01 X42.0279 Y34.0334
G01 X42.0306 Y34.0272
G01 X42.0341 Y34.0205
G01 X42.0383 Y34.0142
G01 X42.0431 Y34.0084
G01 X42.0484 Y34.0031
G01 X42.0543 Y33.9983
G01 X42.0605 Y33.9941
G01 X42.0672 Y33.9906
G01 X42.0750 Y33.9874
G01 X42.0832 Y33.9851
G01 X42.0915 Y33.9837
G01 X42.1000 Y33.9832
G01 X43.9000 Y33.9832
