(G-CODE GENERATED BY FLATCAM v8.99 - www.flatcam.org - Version Date: 2019/12/15)

(Name: SChematic Drawing-PTH.drl_cnc)
(Type: G-code from Excellon)
(Units: MM)

(Created on Wednesday, 26 November 2025 at 22:42)

(Feedrate: 300.0 mm/min)
(Feedrate rapids 1500.0 mm/min)

(Z_Cut: -1.7 mm)
(Z_Move: 2.0 mm)
(Z Toolchange: 15.0 mm)
(X,Y Toolchange: 0.0000, 0.0000 mm)
(Z Start: None mm)
(Z End: 0.5 mm)
(Steps per circle: 64)
(Preprocessor Excellon: default)

(X range:    5.4500 ...   43.4500  mm)
(Y range:   12.4000 ...   37.9500  mm)

(Spindle Speed: None RPM)
G21
G90
G94




G01 F300.00
G00 Z2.0000

M03
G00 X43.0000 Y37.5000
G01 Z-1.7000
G01 Z0
G00 Z2.0000
G00 X43.0000 Y34.9600
G01 Z-1.7000
G01 Z0
G00 Z2.0000
M03
G00 X6.0000 Y17.5000
G01 Z-1.7000
G01 Z0
G00 Z2.0000
G00 X6.0000 Y13.0000
G01 Z-1.7000
G01 Z0
G00 Z2.0000
G00 X12.5000 Y13.0000
G01 Z-1.7000
G01 Z0
G00 Z2.0000
G00 X12.5000 Y17.5000
G01 Z-1.7000
G01 Z0
G00 Z2.0000
M03
G00 X21.8900 Y13.0000
G01 Z-1.7000
G01 Z0
G00 Z2.0000
G00 X29.5100 Y13.0000
G01 Z-1.7000
G01 Z0
G00 Z2.0000
M05
G00 Z0.50
G00 X0.0 Y0.0

